assets/Assets/Summer-Haze-v3.cube
LUT_3D_SIZE 6
0.179403 0.178650 0.185256
0.288605 0.215545 0.223368
0.549984 0.185196 0.196262
0.823362 0.107221 0.128723
0.960133 -0.048366 0.059436
1.158669 -0.061156 0.033979
0.199050 0.298905 0.208822
0.303171 0.296361 0.203174
0.545878 0.284858 0.183107
0.821532 0.253699 0.107906
0.959901 0.209088 0.031434
1.158125 0.190649 0.014050
0.107354 0.529185 0.128666
0.253349 0.527900 0.120154
0.512664 0.512495 0.102473
0.815750 0.534596 0.014658
0.959014 0.465616 -0.020683
1.155831 0.426720 -0.005261
-0.074494 0.812839 0.045288
0.238142 0.812877 -0.031321
0.534649 0.812719 -0.016602
0.808738 0.807311 -0.005023
0.956722 0.709814 -0.005518
1.149181 0.648422 -0.006080
-0.068257 0.954157 0.030809
0.207709 0.954077 -0.006140
0.464772 0.953633 -0.006443
0.709078 0.952687 -0.006643
0.955210 0.953943 -0.006843
1.135558 0.860292 -0.007138
-0.143598 1.413284 -0.140336
0.146280 1.412518 -0.151460
0.395873 1.411151 -0.141345
0.598931 1.408174 -0.112968
0.809708 1.401849 -0.079938
1.093656 1.396144 -0.069007
0.303660 -0.971580 0.374545
0.367328 -0.970172 0.400486
0.579644 -0.971605 0.474882
0.853172 -0.976690 0.536417
0.977592 -0.975408 0.360091
1.183586 -0.971978 0.282348
0.216608 0.301047 0.329966
0.297713 0.287198 0.341471
0.605225 0.121796 0.219038
0.862215 -0.165642 0.086371
0.977563 -0.199286 -0.148459
1.160732 -0.159796 -0.101851
0.121783 0.528174 0.291791
-0.160085 0.546948 0.122973
0.524269 0.527440 0.142234
0.827082 0.512072 0.086076
0.965323 0.434802 0.056138
1.157766 0.400568 0.120452
-0.039309 0.812671 0.279418
-0.199448 0.820218 -0.116927
0.504093 0.816293 0.070766
0.812326 0.811776 0.074634
0.959188 0.700555 0.054205
1.151073 0.637688 0.119434
-0.024925 0.954083 0.243597
-0.198120 0.956167 -0.149945
0.430497 0.954776 0.051908
0.697789 0.953474 0.051680
0.955917 0.954937 0.056794
1.137275 0.856450 0.113715
-0.127174 1.413517 -0.067251
-0.243933 1.415132 -0.278181
0.341292 1.412981 -0.260870
0.577281 1.409845 -0.259600
0.802242 1.403336 -0.249113
1.095624 1.397614 -0.239369
0.434282 -0.972759 0.642719
0.495612 -0.973692 0.659691
0.649345 -0.977652 0.690621
0.867210 -0.980612 0.720624
0.980634 -0.978325 0.595689
1.181884 -0.974454 0.544943
0.190399 0.293967 0.567298
0.102006 0.120768 0.637720
0.590870 0.173192 0.603155
0.845850 0.080298 0.551663
0.970861 -0.065896 0.461720
1.159458 0.066058 0.419799
0.117360 0.521963 0.540037
0.083815 0.538969 0.550474
0.552445 0.530752 0.570148
0.861125 0.378877 0.420537
0.988740 0.156598 0.222837
1.167924 0.314677 0.336274
-0.035416 0.812680 0.550195
-0.054571 0.815498 0.531006
-0.108783 0.841289 0.233329
0.839280 0.838690 0.331437
0.977213 0.656478 0.229635
1.159176 0.631948 0.391532
-0.025047 0.953933 0.478810
-0.012863 0.954728 0.455834
-0.223123 0.962421 -0.151302
0.647913 0.957496 0.242724
0.960124 0.960045 0.247792
1.145543 0.853345 0.359290
-0.130466 1.412788 0.312339
-0.211618 1.414171 0.235920
-0.308896 1.422845 -0.384553
0.489012 1.418471 -0.364503
0.777238 1.411129 -0.356476
1.105447 1.404854 -0.338206
0.463948 -0.975182 0.892221
0.517468 -0.976186 0.895030
0.682981 -0.982754 0.908569
0.866076 -0.987941 0.914354
0.984633 -0.984222 0.828435
1.177877 -0.979712 0.778435
0.164465 0.280531 0.829788
-0.130971 -0.122624 0.902581
0.551848 0.134489 0.866918
0.837880 0.076285 0.842914
0.968929 -0.065366 0.716840
1.158931 0.065968 0.650923
0.071337 0.535569 0.822045
0.035197 0.528803 0.836705
0.236038 0.239326 0.874695
0.868593 0.346345 0.868865
0.987906 0.232558 0.676961
1.166597 0.332328 0.627821
-0.026637 0.806910 0.816094
-0.039264 0.811795 0.819091
0.275695 0.846575 0.846783
0.841757 0.825611 0.834918
0.980739 0.741961 0.747765
1.163011 0.757892 0.761582
-0.025293 0.953624 0.716131
-0.007139 0.954332 0.708075
0.157613 0.959662 0.657323
0.575935 0.962799 0.590679
0.972516 0.963021 0.589480
1.147922 0.914244 0.757750
-0.115350 1.412009 0.517233
-0.207820 1.413402 0.492424
-0.288725 1.421281 0.368073
0.400673 1.431291 0.214447
0.766634 1.421971 0.253828
1.122970 1.414130 0.335554
0.178714 -0.975784 1.001135
0.304387 -0.976689 1.001269
0.544471 -0.982751 1.007208
0.757053 -0.988976 1.012371
0.959990 -0.983976 1.008742
1.176349 -0.979386 0.964775
0.133779 0.240297 0.960361
-0.179682 -0.178026 1.003983
0.463754 0.098784 0.987254
0.716273 0.062128 0.970653
0.969073 -0.054059 0.967458
1.158203 0.069333 0.875808
0.056357 0.467957 0.957595
0.036440 0.452105 0.968946
0.091661 0.079945 0.983892
0.682812 0.295905 0.979382
0.995095 0.209945 0.987070
1.166109 0.321412 0.869129
-0.021551 0.710148 0.955879
-0.035852 0.705411 0.958610
0.201081 0.668712 0.978386
0.686486 0.683955 0.973762
0.990517 0.652738 0.978406
1.169250 0.703982 0.907840
-0.025310 0.953905 0.955184
0.020297 0.955354 0.955899
0.186462 0.962575 0.959939
0.598927 0.970558 0.965378
0.960032 0.954747 0.953343
1.134912 0.949232 0.947766
-0.089145 1.410562 0.753832
-0.192457 1.411887 0.746070
-0.267360 1.419402 0.716499
0.494165 1.428751 0.734137
0.929283 1.412188 0.873155
1.150241 1.403849 0.871749
0.143630 -0.975168 1.180560
0.283692 -0.976033 1.180231
0.525118 -0.981572 1.178187
0.727489 -0.987047 1.174484
0.903509 -0.978428 1.171925
1.184772 -0.966111 1.176675
0.119750 0.220286 1.105676
-0.137347 -0.137481 1.108869
0.417430 0.133804 1.105160
0.648584 0.103410 1.102183
0.874990 0.070332 1.099191
1.158121 0.071315 1.097586
0.058371 0.431377 1.100835
0.097403 0.409915 1.101880
0.173432 0.169536 1.114653
0.617654 0.314622 1.106925
0.867101 0.313765 1.104461
1.166238 0.313036 1.103190
-0.028064 0.652415 1.095982
0.071429 0.643132 1.096833
0.313757 0.613981 1.103171
0.688358 0.686945 1.113211
0.892518 0.676526 1.107757
1.171536 0.674038 1.113313
-0.028004 0.866211 1.084774
0.070740 0.863030 1.085471
0.309801 0.854972 1.090539
0.669254 0.882051 1.097186
0.947157 0.946189 1.079574
1.142106 0.941209 1.095736
-0.028684 1.131338 1.072391
0.066459 1.132756 1.072770
0.298565 1.139901 1.077506
0.655668 1.147565 1.089796
0.937221 1.131128 1.085802
1.111370 1.111738 1.052637
