assets/Assets/Summer-Haze-v2.cube
LUT_3D_SIZE 16
0.045579 0.061617 0.082255
0.045139 0.093537 0.102103
0.136744 0.131988 0.132492
0.191801 0.142656 0.143317
0.266073 0.144917 0.147776
0.349648 0.151810 0.155504
0.444600 0.153336 0.158887
0.550069 0.150015 0.158730
0.655800 0.146224 0.158473
0.757137 0.145773 0.161012
0.853056 0.151547 0.168362
0.941532 0.164016 0.180733
1.020478 0.181202 0.196647
1.078635 0.195697 0.209875
1.124207 0.208718 0.221577
1.285435 0.251473 0.261419
0.117317 0.099156 0.118125
0.088711 0.085871 0.110869
0.137431 0.126965 0.133767
0.191635 0.138425 0.143381
0.265870 0.138241 0.146363
0.349633 0.144132 0.154295
0.444675 0.144218 0.157495
0.550170 0.140553 0.157985
0.655887 0.136104 0.158110
0.757194 0.135262 0.160830
0.853080 0.141399 0.168206
0.941530 0.154901 0.180496
1.020478 0.173414 0.196305
1.078624 0.188834 0.209449
1.124202 0.202265 0.221148
1.285421 0.246796 0.261076
0.146807 0.147700 0.142509
0.140595 0.146296 0.141200
0.158901 0.148017 0.142987
0.199924 0.160454 0.154640
0.268777 0.163519 0.151537
0.350151 0.168715 0.155470
0.444252 0.172870 0.158755
0.549493 0.173942 0.159086
0.655290 0.172847 0.158575
0.756789 0.173918 0.161307
0.852875 0.179480 0.169073
0.941511 0.190037 0.181890
1.020634 0.204397 0.198119
1.078703 0.215650 0.211372
1.124259 0.225051 0.222799
1.285405 0.265235 0.262423
0.145087 0.192093 0.146727
0.136198 0.191713 0.144845
0.165590 0.192400 0.147091
0.211107 0.194097 0.148926
0.270922 0.203826 0.160506
0.349558 0.212374 0.158891
0.442654 0.220816 0.159686
0.547754 0.226816 0.158141
0.653913 0.231420 0.158502
0.755911 0.236018 0.162802
0.852477 0.242264 0.172250
0.941588 0.250607 0.186385
1.020938 0.260352 0.203099
1.078892 0.265852 0.215972
1.124395 0.269792 0.226788
1.285377 0.303308 0.265635
0.130542 0.249164 0.144008
0.115822 0.249025 0.141333
0.159652 0.249141 0.146801
0.212422 0.249003 0.146706
0.271007 0.247832 0.145763
0.346370 0.260838 0.159355
0.439205 0.275515 0.158919
0.544785 0.287957 0.156839
0.651798 0.297925 0.159169
0.754697 0.305944 0.166279
0.852119 0.313503 0.178383
0.942029 0.321001 0.194440
1.021357 0.327311 0.211217
1.079203 0.328019 0.223448
1.124633 0.327064 0.233321
1.285376 0.354859 0.270972
0.137967 0.312559 0.151702
0.123369 0.312512 0.149592
0.164325 0.312331 0.153463
0.218038 0.311799 0.153313
0.279071 0.310700 0.152511
0.336215 0.305553 0.151519
0.432826 0.330348 0.153376
0.540841 0.352208 0.156372
0.649341 0.367512 0.162242
0.753669 0.379077 0.173414
0.852393 0.388450 0.188915
0.942611 0.395426 0.206472
1.021994 0.399205 0.222652
1.079820 0.396131 0.234080
1.125113 0.391006 0.242626
1.285569 0.414746 0.278730
0.121606 0.388088 0.148578
0.103609 0.388059 0.146993
0.155152 0.387900 0.149858
0.219844 0.387449 0.149828
0.289669 0.386758 0.149857
0.358846 0.384844 0.150085
0.416772 0.375973 0.150500
0.534799 0.414887 0.157598
0.647652 0.439003 0.170276
0.753708 0.454291 0.186319
0.853106 0.465229 0.204782
0.943657 0.471764 0.222364
1.023262 0.473842 0.237841
1.080483 0.466951 0.247243
1.125500 0.458155 0.254134
1.285581 0.479232 0.288518
0.106806 0.478460 0.150649
0.084006 0.478451 0.149691
0.149840 0.478421 0.151678
0.225917 0.478343 0.152503
0.304057 0.478266 0.153993
0.382488 0.478264 0.156382
0.457722 0.476697 0.159641
0.521031 0.467804 0.161984
0.645627 0.509388 0.184798
0.755116 0.531018 0.206518
0.855354 0.543493 0.225885
0.945677 0.549375 0.242063
1.024481 0.549174 0.255015
1.080946 0.538869 0.262281
1.125755 0.526931 0.267600
1.285331 0.546300 0.300161
0.128682 0.576444 0.172277
0.111784 0.576428 0.171792
0.168087 0.576557 0.173246
0.244211 0.576853 0.175237
0.324861 0.577386 0.178622
0.406821 0.578251 0.183667
0.489341 0.579594 0.190673
0.569298 0.579836 0.198989
0.641248 0.575137 0.206245
0.757884 0.607608 0.231404
0.858022 0.621520 0.248765
0.947300 0.626363 0.262572
1.025534 0.624544 0.273638
1.081243 0.611204 0.278978
1.125841 0.596445 0.282740
1.284750 0.614739 0.313450
0.185860 0.675842 0.214571
0.176167 0.675827 0.214386
0.213757 0.676013 0.215339
0.278226 0.676427 0.217453
0.353583 0.677090 0.220859
0.433409 0.678005 0.225582
0.515233 0.679156 0.231572
0.597970 0.680515 0.238726
0.679227 0.680914 0.246392
0.756764 0.678855 0.253809
0.859714 0.697643 0.271439
0.948770 0.702715 0.283995
1.026477 0.699649 0.293497
1.081322 0.683448 0.296980
1.125697 0.666111 0.299224
1.283764 0.683758 0.328125
0.229846 0.766568 0.251620
0.222686 0.766546 0.251545
0.251628 0.766648 0.252058
0.307036 0.766895 0.253669
0.376341 0.767302 0.256310
0.452519 0.767885 0.260047
0.532207 0.768655 0.264905
0.613765 0.769620 0.270876
0.696337 0.770781 0.277921
0.778644 0.771644 0.285741
0.861431 0.772868 0.294571
0.950304 0.778461 0.306189
1.027252 0.774159 0.314230
1.081106 0.755205 0.315933
1.125259 0.735514 0.316740
1.282283 0.752792 0.343916
0.264495 0.847018 0.282670
0.258717 0.847002 0.282636
0.282602 0.847076 0.283009
0.331066 0.847258 0.284365
0.394619 0.847558 0.286594
0.466623 0.847985 0.289760
0.543321 0.848551 0.293899
0.622688 0.849259 0.299019
0.703602 0.850110 0.305105
0.785395 0.851104 0.312119
0.867906 0.852406 0.320085
0.954974 0.856908 0.330259
1.028676 0.848912 0.335956
1.080481 0.826130 0.335518
1.124796 0.804334 0.335049
1.280190 0.821397 0.360553
0.293292 0.916727 0.309045
0.288457 0.916716 0.309001
0.308740 0.916770 0.309349
0.351248 0.916901 0.310503
0.409063 0.917116 0.312402
0.476322 0.917423 0.315107
0.549206 0.917828 0.318656
0.625466 0.918331 0.323068
0.703773 0.918934 0.328337
0.783321 0.919634 0.334443
0.863583 0.920423 0.341354
0.945516 0.922140 0.349408
1.036615 0.930295 0.361032
1.083771 0.900370 0.357260
1.123960 0.872293 0.353856
1.277327 0.889202 0.377777
0.312573 0.964409 0.326860
0.308234 0.964398 0.326774
0.325604 0.964441 0.327159
0.362695 0.964545 0.328143
0.414610 0.964718 0.329767
0.476379 0.964957 0.332083
0.544377 0.965270 0.335133
0.616273 0.965651 0.338930
0.690632 0.966094 0.343482
0.766541 0.966589 0.348774
0.843396 0.967120 0.354782
0.920772 0.967665 0.361467
1.000850 0.969766 0.369506
1.089369 0.977538 0.380721
1.120682 0.938256 0.372459
1.269734 0.952103 0.393843
0.326792 1.000071 0.340128
0.322632 1.000069 0.340034
0.337518 1.000076 0.340376
0.370093 1.000095 0.341201
0.416760 1.000124 0.342564
0.473341 1.000162 0.344515
0.536464 1.000205 0.347084
0.603816 1.000245 0.350291
0.673892 1.000272 0.354142
0.745699 1.000269 0.358629
0.818566 1.000214 0.363729
0.892007 1.000070 0.369410
0.965640 0.999790 0.375622
1.041246 1.000575 0.382897
1.120902 1.005234 0.392284
1.263262 1.013531 0.410273
0.476933 1.429120 0.489121
0.474721 1.428967 0.488570
0.484256 1.428711 0.488010
0.504921 1.428504 0.488099
0.536359 1.428372 0.489080
0.576427 1.428200 0.490626
0.622432 1.427950 0.492643
0.672474 1.427618 0.495167
0.726220 1.427153 0.498123
0.783823 1.426497 0.501413
0.845303 1.425583 0.504947
0.910886 1.424347 0.508688
0.981545 1.422738 0.512706
1.056425 1.420076 0.516806
1.132882 1.418863 0.521729
1.270892 1.422412 0.533308
-0.339200 -0.991889 -0.336888
-0.343862 -0.991264 -0.335811
-0.336886 -0.989413 -0.331573
-0.309195 -0.988514 -0.332481
-0.250580 -0.988841 -0.343397
0.129263 -0.987041 -0.345188
0.351683 -0.983880 -0.337731
0.501274 -0.983907 -0.329654
0.632866 -0.984491 -0.316567
0.750615 -0.984736 -0.300995
0.856416 -0.984098 -0.286840
0.949017 -0.982303 -0.279366
1.024561 -0.979337 -0.286653
1.085523 -0.975869 -0.285079
1.129465 -0.973139 -0.277397
1.290822 -0.967012 -0.240895
0.117466 0.098984 0.121296
0.086509 0.087070 0.116537
0.143715 0.112481 0.130516
0.205096 0.118649 0.136383
0.278479 0.112419 0.136918
0.360134 0.120880 0.146180
0.453236 0.120638 0.150090
0.557021 0.115302 0.151182
0.661380 0.109098 0.151908
0.761578 0.107575 0.154941
0.856560 0.115546 0.162636
0.944259 0.132669 0.175298
1.022539 0.154993 0.191508
1.081272 0.173023 0.204914
1.123543 0.190064 0.217664
1.285529 0.237445 0.258278
0.150238 0.147901 0.148394
0.118244 0.147016 0.137415
0.160662 0.150968 0.144768
0.202179 0.158240 0.154777
0.272365 0.158870 0.151437
0.354261 0.163212 0.155593
0.448143 0.166292 0.158945
0.552842 0.166426 0.159570
0.658069 0.164160 0.159010
0.759057 0.164552 0.161630
0.854702 0.170081 0.169245
0.942958 0.181209 0.181907
1.021732 0.196508 0.198019
1.080601 0.208555 0.211093
1.123417 0.219581 0.223060
1.285483 0.260635 0.262533
0.150083 0.191707 0.153860
0.093603 0.192815 0.134169
0.159315 0.193353 0.147041
0.212347 0.195842 0.149523
0.272173 0.202367 0.160738
0.351587 0.209803 0.159061
0.445101 0.217478 0.159961
0.550165 0.222696 0.158640
0.656087 0.226536 0.158931
0.757785 0.230635 0.163110
0.854044 0.236655 0.172405
0.942858 0.245029 0.186386
1.021929 0.255026 0.202991
1.080636 0.260856 0.215692
1.123618 0.265552 0.227039
1.285455 0.299554 0.265745
0.142601 0.248701 0.155018
0.059368 0.250087 0.131076
0.151471 0.249804 0.146999
0.208965 0.249723 0.146934
0.272047 0.249082 0.145982
0.347244 0.260085 0.159949
0.440517 0.273989 0.159414
0.546314 0.285771 0.157341
0.653326 0.295160 0.159582
0.756106 0.302749 0.166557
0.853351 0.310031 0.178507
0.943067 0.317397 0.194419
1.022200 0.323716 0.211119
1.080730 0.324579 0.223175
1.123945 0.323837 0.233562
1.285453 0.351909 0.271072
0.149159 0.312061 0.162257
0.081051 0.313486 0.141076
0.156302 0.312931 0.153855
0.213619 0.312323 0.153708
0.277290 0.311247 0.152863
0.337179 0.306598 0.151799
0.433502 0.329882 0.153944
0.541701 0.351098 0.156882
0.650316 0.365936 0.162632
0.754640 0.377122 0.173654
0.853294 0.386220 0.189005
0.943415 0.393028 0.206459
1.022663 0.396717 0.222564
1.081090 0.393744 0.233837
1.124531 0.388536 0.242879
1.285646 0.412462 0.278845
0.134831 0.387660 0.160295
0.025989 0.388905 0.138947
0.144974 0.388418 0.150324
0.214507 0.387925 0.150302
0.286870 0.387168 0.150344
0.357796 0.385283 0.150586
0.417596 0.376829 0.151054
0.535300 0.414549 0.158097
0.648207 0.438143 0.170650
0.754327 0.453099 0.186533
0.853726 0.463781 0.204868
0.944233 0.470130 0.222358
1.023763 0.472095 0.237794
1.081500 0.465275 0.247041
1.125031 0.456238 0.254391
1.285665 0.477455 0.288641
0.122728 0.478132 0.163260
-0.069466 0.479135 0.142456
0.137208 0.478832 0.152179
0.219677 0.478732 0.153011
0.300610 0.478618 0.154511
0.380626 0.478570 0.156918
0.457055 0.477046 0.160228
0.521767 0.468535 0.162769
0.645987 0.509124 0.185222
0.755472 0.530336 0.206740
0.855742 0.542569 0.226009
0.946073 0.548277 0.242125
1.024846 0.547943 0.255021
1.081722 0.537678 0.262121
1.125391 0.525436 0.267858
1.285418 0.544913 0.300294
0.141770 0.576213 0.183728
0.052106 0.576971 0.166391
0.156077 0.576862 0.173647
0.237745 0.577147 0.175642
0.321035 0.577661 0.179034
0.404519 0.578500 0.184091
0.488044 0.579814 0.191115
0.568846 0.580105 0.199501
0.641861 0.575732 0.207002
0.758142 0.607398 0.231753
0.858263 0.620990 0.248969
0.947560 0.625648 0.262696
1.025783 0.623685 0.273693
1.081804 0.610354 0.278867
1.125567 0.595283 0.282997
1.284839 0.613658 0.313594
0.194164 0.675683 0.223580
0.153108 0.676216 0.210641
0.204706 0.676230 0.215627
0.272350 0.676640 0.217749
0.349748 0.677294 0.221167
0.430893 0.678195 0.225906
0.513627 0.679331 0.231915
0.597033 0.680673 0.239091
0.678901 0.681117 0.246820
0.757245 0.679313 0.254427
0.859902 0.697474 0.271745
0.948929 0.702288 0.284178
1.026637 0.699070 0.293603
1.081706 0.682848 0.296923
1.125499 0.665221 0.299479
1.283854 0.682922 0.328280
0.236079 0.766447 0.259015
0.206867 0.766836 0.248702
0.244297 0.766811 0.252305
0.301733 0.767054 0.253921
0.372617 0.767456 0.256570
0.449920 0.768032 0.260317
0.530419 0.768792 0.265190
0.612586 0.769745 0.271178
0.695632 0.770895 0.278241
0.778396 0.771796 0.286115
0.861803 0.773220 0.295099
0.950435 0.778315 0.306459
1.027347 0.773804 0.314390
1.081348 0.754795 0.315932
1.125118 0.734850 0.316990
1.282372 0.752158 0.344082
0.269576 0.846932 0.288943
0.246303 0.847207 0.280295
0.276426 0.847191 0.283219
0.326284 0.847370 0.284579
0.391071 0.847667 0.286813
0.464028 0.848090 0.289988
0.541442 0.848649 0.294137
0.621357 0.849350 0.299271
0.702702 0.850195 0.305372
0.784847 0.851182 0.312402
0.867707 0.852516 0.320415
0.955254 0.857173 0.330717
1.028758 0.848779 0.336190
1.080621 0.825873 0.335578
1.124772 0.803862 0.335301
1.280279 0.820931 0.360730
0.297589 0.916672 0.314449
0.278158 0.916846 0.306962
0.303458 0.916842 0.309526
0.346953 0.916971 0.310681
0.405736 0.917185 0.312586
0.473790 0.917489 0.315297
0.547301 0.917889 0.318854
0.624049 0.918390 0.323276
0.702748 0.918989 0.328557
0.782614 0.919684 0.334677
0.863143 0.920469 0.341602
0.945347 0.922211 0.349696
1.036815 0.930483 0.361427
1.083832 0.900247 0.357394
1.123886 0.871978 0.354086
1.277415 0.888879 0.377965
0.316336 0.964391 0.331566
0.299204 0.964469 0.324821
0.320933 0.964493 0.327229
0.358762 0.964596 0.328215
0.411459 0.964766 0.329845
0.473911 0.965006 0.332170
0.542461 0.965316 0.335228
0.614803 0.965693 0.339038
0.689522 0.966133 0.343603
0.765726 0.966626 0.348912
0.842826 0.967153 0.354938
0.920410 0.967695 0.361642
1.000700 0.969812 0.369721
1.089370 0.977540 0.380943
1.120645 0.938102 0.372688
1.269824 0.951908 0.394042
0.330144 1.000050 0.344273
0.315154 0.999994 0.338453
0.333808 0.999985 0.340621
0.366874 1.000004 0.341445
0.414095 1.000035 0.342808
0.471179 1.000075 0.344757
0.534726 1.000121 0.347326
0.602427 1.000164 0.350531
0.672787 1.000194 0.354381
0.744831 1.000196 0.358865
0.817899 1.000143 0.363963
0.891511 1.000002 0.369640
0.965293 0.999725 0.375849
1.041075 1.000545 0.383140
1.120955 1.005282 0.392551
1.263317 1.013414 0.410471
0.478300 1.429093 0.488270
0.468611 1.429087 0.483731
0.479820 1.428877 0.484255
0.500770 1.428671 0.484160
0.532743 1.428504 0.484767
0.573330 1.428298 0.486012
0.619812 1.428030 0.487814
0.670281 1.427690 0.490168
0.724410 1.427222 0.493018
0.782360 1.426562 0.496274
0.844151 1.425645 0.499840
0.910017 1.424408 0.503672
0.980932 1.422795 0.507844
1.056046 1.420133 0.512157
1.132714 1.418918 0.517286
1.271007 1.422487 0.529074
-0.348723 -0.991695 -0.328308
-0.350497 -0.991244 -0.327314
-0.340088 -0.989956 -0.323968
-0.309006 -0.988952 -0.319577
-0.246290 -0.989086 -0.326590
0.142327 -0.986780 -0.326225
0.354319 -0.983933 -0.317885
0.502781 -0.983960 -0.307790
0.633862 -0.984533 -0.292207
0.751308 -0.984766 -0.273872
0.856904 -0.984115 -0.257172
0.949349 -0.982310 -0.248558
1.024758 -0.979336 -0.257917
1.085666 -0.975863 -0.257222
1.129519 -0.973132 -0.249938
1.290805 -0.967005 -0.205812
0.109482 0.100682 0.133969
-0.061581 0.033397 0.140922
0.142679 0.096790 0.151271
0.199515 0.124165 0.160304
0.266982 0.133526 0.170667
0.345235 0.149777 0.184408
0.437710 0.154445 0.192768
0.542716 0.153862 0.198203
0.648857 0.151903 0.201920
0.750894 0.152519 0.206075
0.847583 0.158580 0.212485
0.936825 0.170694 0.221744
1.016597 0.187203 0.233284
1.076768 0.200130 0.241630
1.122047 0.212631 0.249611
1.285340 0.253916 0.284336
0.153763 0.150614 0.161082
0.137361 0.153727 0.164592
0.155392 0.145919 0.163762
0.214338 0.144164 0.165836
0.302092 0.106234 0.148297
0.392827 0.084121 0.141721
0.486485 0.056944 0.137895
0.587112 -0.042050 0.134297
0.687450 -0.068862 0.132650
0.783856 -0.073410 0.135655
0.875414 -0.055408 0.144830
0.960006 0.063065 0.159368
1.035158 0.109474 0.177313
1.098847 0.135516 0.191478
1.119020 0.170945 0.210532
1.286119 0.223008 0.252214
0.150240 0.191884 0.169411
0.134211 0.192346 0.169615
-0.096687 0.197249 0.123565
0.220012 0.201607 0.154937
0.280542 0.195772 0.165762
0.363679 0.198011 0.161795
0.459249 0.201755 0.162363
0.564324 0.204018 0.162705
0.669168 0.203708 0.162130
0.769397 0.205150 0.165415
0.864088 0.210070 0.173823
0.951340 0.218789 0.187012
1.028799 0.230200 0.202993
1.093361 0.237154 0.214417
1.118062 0.248111 0.229797
1.285910 0.283729 0.267174
0.142553 0.248649 0.172986
0.131795 0.247903 0.174397
-0.138184 0.256140 0.103555
0.191584 0.253881 0.148567
0.276880 0.254529 0.147606
0.352376 0.257537 0.164080
0.448372 0.268499 0.163229
0.555549 0.277152 0.160899
0.662750 0.283670 0.162382
0.765066 0.289134 0.168535
0.861489 0.295033 0.179669
0.950211 0.301735 0.194874
1.028186 0.308006 0.211093
1.092156 0.309418 0.221884
1.118944 0.310586 0.236263
1.285905 0.339705 0.272462
0.148998 0.311949 0.180618
0.143994 0.310891 0.183571
-0.118737 0.319058 0.118907
0.192853 0.315650 0.157134
0.269578 0.314357 0.155886
0.341045 0.311074 0.154270
0.437339 0.328778 0.157763
0.547021 0.347349 0.160026
0.656519 0.360053 0.164994
0.761045 0.369483 0.175243
0.859480 0.377257 0.189875
0.949136 0.383204 0.206793
1.027623 0.386368 0.222496
1.090958 0.383903 0.232521
1.120192 0.378256 0.245549
1.286105 0.403102 0.280218
0.134666 0.387564 0.182014
0.131021 0.386564 0.185738
-0.133926 0.393716 0.115708
0.188478 0.390827 0.153327
0.274377 0.389652 0.153362
0.353354 0.387631 0.153564
0.420775 0.380405 0.154205
0.538108 0.413762 0.160674
0.651857 0.435326 0.172600
0.758588 0.448841 0.187758
0.858174 0.458356 0.205516
0.948558 0.463813 0.222585
1.027691 0.465130 0.237717
1.089760 0.458881 0.245780
1.121395 0.448118 0.257040
1.286142 0.470241 0.290013
0.122725 0.478093 0.187882
0.120131 0.477234 0.192106
-0.146461 0.483147 0.119740
0.188266 0.481095 0.155440
0.284751 0.480739 0.156930
0.372466 0.480369 0.159323
0.454185 0.478778 0.162735
0.524232 0.471213 0.165871
0.648019 0.508487 0.186935
0.758012 0.528146 0.207713
0.858703 0.539347 0.226534
0.949207 0.544252 0.242367
1.027859 0.543256 0.255015
1.088410 0.533546 0.260914
1.122427 0.518966 0.270468
1.285905 0.539323 0.301656
0.142052 0.576232 0.207608
0.140845 0.575507 0.211774
-0.130872 0.580275 0.148686
0.205194 0.578992 0.177158
0.303216 0.579361 0.180545
0.394192 0.580007 0.185602
0.482404 0.581086 0.192632
0.566845 0.581364 0.201189
0.643819 0.577789 0.209364
0.759612 0.606853 0.232797
0.860098 0.619291 0.249544
0.949712 0.623187 0.262995
1.027996 0.620572 0.273751
1.087047 0.607744 0.277726
1.123218 0.590144 0.285564
1.285333 0.609334 0.314948
0.194482 0.675724 0.243679
0.194203 0.675113 0.247340
0.082562 0.678869 0.198148
0.243375 0.678060 0.218531
0.331802 0.678630 0.221971
0.419451 0.679415 0.226741
0.506474 0.680401 0.232784
0.592942 0.681571 0.240001
0.677398 0.682011 0.247886
0.758687 0.680805 0.256005
0.860993 0.697019 0.272442
0.950276 0.700935 0.284530
1.028174 0.697099 0.293735
1.085672 0.681277 0.295860
1.123690 0.661196 0.302002
1.284351 0.679608 0.329627
0.236286 0.766462 0.276133
0.236398 0.765943 0.279396
0.169423 0.768905 0.238628
0.275880 0.768187 0.254370
0.355128 0.768534 0.257039
0.437987 0.769032 0.260812
0.522350 0.769696 0.265717
0.607345 0.770533 0.271743
0.692553 0.771553 0.278852
0.777233 0.772449 0.286852
0.862863 0.774309 0.296221
0.951246 0.777921 0.306938
1.028323 0.772687 0.314595
1.084218 0.753949 0.314961
1.123769 0.731782 0.319478
1.282868 0.749672 0.345435
0.269745 0.846939 0.303752
0.270052 0.846488 0.306671
0.218524 0.848856 0.271721
0.303155 0.848271 0.284824
0.374384 0.848531 0.287074
0.452044 0.848904 0.290269
0.532890 0.849399 0.294447
0.615384 0.850022 0.299613
0.698726 0.850776 0.305751
0.782464 0.851665 0.312824
0.866779 0.852992 0.320940
0.956021 0.857961 0.331534
1.029350 0.848424 0.336519
1.082564 0.825539 0.334705
1.124185 0.801635 0.337774
1.280773 0.819129 0.362065
0.297730 0.916673 0.327318
0.298118 0.916279 0.329898
0.255664 0.918139 0.299425
0.326326 0.917675 0.310787
0.390079 0.917865 0.312703
0.462071 0.918136 0.315432
0.538591 0.918494 0.319013
0.617658 0.918942 0.323461
0.698183 0.919480 0.328773
0.779519 0.920107 0.334930
0.861255 0.920819 0.341893
0.944581 0.922552 0.350071
1.037341 0.931030 0.362019
1.084158 0.899606 0.356345
1.123230 0.870460 0.356421
1.277896 0.887660 0.379266
0.316457 0.964391 0.342699
0.316230 0.964203 0.344743
0.277521 0.965584 0.316862
0.338437 0.965435 0.326976
0.395465 0.965589 0.328628
0.461570 0.965810 0.330985
0.533025 0.966088 0.334082
0.607661 0.966425 0.337939
0.684212 0.966815 0.342558
0.761903 0.967245 0.347926
0.840230 0.967700 0.354016
0.918837 0.968160 0.360787
1.000065 0.970224 0.368962
1.089367 0.977549 0.379399
1.120297 0.937324 0.374742
1.270293 0.951198 0.395337
0.330243 1.000037 0.353991
0.329436 0.999804 0.355632
0.304869 0.999334 0.335402
0.354815 0.999185 0.343826
0.404115 0.999232 0.345183
0.463067 0.999296 0.347126
0.528159 0.999372 0.349685
0.597113 0.999452 0.352880
0.668496 0.999524 0.356716
0.741391 0.999573 0.361186
0.815179 0.999572 0.366267
0.889417 0.999485 0.371926
0.963757 0.999267 0.378121
1.040268 1.000292 0.385253
1.121024 1.005343 0.394255
1.263667 1.013041 0.411728
0.479528 1.429269 0.489678
0.475678 1.429239 0.488679
0.456177 1.429626 0.472671
0.484526 1.429332 0.476321
0.517975 1.429061 0.476696
0.560634 1.428767 0.477569
0.609074 1.428459 0.478990
0.661321 1.428102 0.481009
0.717058 1.427625 0.483646
0.776460 1.426958 0.486840
0.839566 1.426034 0.490480
0.906617 1.424788 0.494511
0.978602 1.423164 0.499012
1.054674 1.420488 0.503768
1.132206 1.419267 0.509322
1.271617 1.422908 0.521564
-0.366423 -0.992323 -0.307674
-0.364694 -0.991963 -0.306325
-0.346248 -0.991289 -0.299872
-0.308017 -0.990400 -0.293113
-0.229169 -0.989709 -0.289488
0.178949 -0.986316 -0.283053
0.364756 -0.984180 -0.271986
0.509002 -0.984234 -0.255885
0.638043 -0.984784 -0.232265
0.754223 -0.984983 -0.203855
0.858922 -0.984298 -0.176222
0.950686 -0.982463 -0.161872
1.025496 -0.979470 -0.181319
1.086202 -0.975976 -0.183498
1.129680 -0.973243 -0.177028
1.290697 -0.967121 -0.075782
0.103323 0.096193 0.169097
-0.099985 -0.068335 0.194249
0.130957 0.081124 0.188197
0.207751 0.121943 0.193250
0.266755 0.136872 0.199554
0.345103 0.150754 0.214195
0.437614 0.154622 0.225905
0.542605 0.153798 0.235448
0.648751 0.151865 0.242273
0.750811 0.152631 0.247975
0.847532 0.158878 0.254287
0.936803 0.171143 0.261870
1.016611 0.187725 0.270531
1.076755 0.200628 0.275491
1.122056 0.213060 0.280029
1.285327 0.254247 0.311138
0.139793 0.149581 0.185932
0.100960 0.140864 0.188420
-0.123822 -0.092885 0.191653
0.224458 0.084596 0.206378
0.296696 0.116399 0.204211
0.379366 0.129879 0.213771
0.468073 0.136921 0.221475
0.566549 0.139990 0.227993
0.666980 0.141794 0.232850
0.764774 0.145932 0.237429
0.858371 0.154952 0.243257
0.945305 0.169201 0.250888
1.023667 0.186710 0.259833
1.090390 0.197230 0.264542
1.116251 0.216258 0.270914
1.285673 0.255154 0.302190
0.157631 0.197622 0.199214
0.151281 0.201033 0.200725
0.100374 0.209513 0.211690
0.207794 0.188344 0.206313
0.294075 0.169710 0.199825
0.391333 0.147619 0.185857
0.502233 0.097072 0.163305
0.613366 -0.067080 0.144799
0.717605 -0.110877 0.130736
0.813997 -0.125253 0.125165
0.903506 -0.124488 0.130107
0.984990 -0.108968 0.143721
1.055937 -0.069836 0.161204
1.123025 0.067328 0.176295
1.109627 0.163922 0.210045
1.287460 0.215719 0.250372
0.142293 0.248553 0.203031
0.132307 0.247867 0.202667
0.053383 0.254010 0.196436
-0.186284 0.261826 0.081606
0.297613 0.266224 0.156818
0.366763 0.247170 0.184432
0.466428 0.249485 0.174087
0.575928 0.253813 0.173417
0.683438 0.256432 0.175999
0.784821 0.256543 0.178500
0.879582 0.259097 0.186332
0.966185 0.264398 0.198805
1.041856 0.270689 0.212879
1.117993 0.271059 0.219086
1.108611 0.284899 0.244960
1.287016 0.314556 0.277362
0.148534 0.311730 0.211432
0.144060 0.310705 0.212803
0.123168 0.313942 0.206302
-0.168016 0.329336 0.110628
0.249454 0.322940 0.165929
0.353934 0.322823 0.164640
0.447663 0.326401 0.172838
0.559810 0.340007 0.174918
0.670912 0.347683 0.176303
0.775748 0.353030 0.183388
0.873638 0.357762 0.195268
0.962194 0.361728 0.210046
1.038824 0.363673 0.224137
1.112622 0.361048 0.229857
1.110047 0.358547 0.253974
1.287216 0.384390 0.285007
0.134186 0.387379 0.217458
0.131077 0.386387 0.219762
0.115447 0.388303 0.210602
-0.173271 0.403829 0.102813
0.245721 0.396482 0.167560
0.344799 0.394247 0.167004
0.429913 0.389835 0.167228
0.545503 0.413025 0.172243
0.660812 0.430190 0.181942
0.768729 0.440440 0.194206
0.868627 0.447320 0.209766
0.958661 0.450760 0.225215
1.036738 0.450553 0.239101
1.108768 0.444831 0.243304
1.112832 0.432513 0.265260
1.287280 0.456090 0.294692
0.122558 0.478025 0.227356
0.120556 0.477162 0.230217
0.108459 0.478560 0.219120
