assets/Assets/Summer-Haze-v3.cube
LUT_3D_SIZE 16
0.179403 0.178650 0.185256
0.178162 0.193591 0.199886
0.215346 0.212079 0.218764
0.288605 0.215545 0.223368
0.375397 0.202232 0.211560
0.459581 0.197523 0.207465
0.549984 0.185196 0.196262
0.649490 0.164966 0.178177
0.743548 0.138234 0.154754
0.823362 0.107221 0.128723
0.884956 0.074194 0.103544
0.927832 0.042273 0.083931
0.960133 -0.048366 0.059436
0.988952 -0.064355 0.031931
1.014459 -0.063652 0.028165
1.158669 -0.061156 0.033979
0.207362 0.189162 0.213450
0.191235 0.185653 0.210668
0.218881 0.205511 0.226049
0.289326 0.208564 0.225832
0.375739 0.193689 0.212441
0.459878 0.187787 0.208495
0.550253 0.174497 0.197633
0.649711 0.152696 0.180301
0.743709 0.123335 0.158262
0.823464 0.088901 0.135139
0.885004 0.050113 0.114792
0.927853 -0.059442 0.090059
0.960156 -0.079761 0.064181
0.988968 -0.088586 0.035713
1.014497 -0.088764 0.028863
1.158691 -0.086103 0.034246
0.222303 0.232512 0.229581
0.213518 0.231435 0.228560
0.240734 0.230937 0.227904
0.295118 0.244163 0.242438
0.376504 0.233708 0.215645
0.459214 0.225948 0.205663
0.549094 0.215372 0.192993
0.648541 0.200502 0.173563
0.742809 0.181193 0.148929
0.822880 0.159761 0.121323
0.884688 0.138862 0.092870
0.927705 0.120951 0.066264
0.960099 0.107897 0.043492
0.988900 0.098134 0.025550
1.014380 0.089764 0.022398
1.158524 0.094520 0.024415
0.199050 0.298905 0.208822
0.190213 0.298851 0.209169
0.232423 0.298084 0.206719
0.303171 0.296361 0.203174
0.374486 0.297997 0.225068
0.456076 0.291689 0.201490
0.545878 0.284858 0.183107
0.645682 0.277711 0.161303
0.740703 0.267195 0.135718
0.821532 0.253699 0.107906
0.883941 0.238524 0.079736
0.927357 0.222941 0.053665
0.959901 0.209088 0.031434
0.988717 0.197049 -0.010164
1.014077 0.186696 0.012335
1.158125 0.190649 0.014050
0.167851 0.373634 0.180388
0.156344 0.373694 0.182067
0.204939 0.373032 0.178218
0.284732 0.371395 0.174119
0.369428 0.367374 0.166813
0.449464 0.364346 0.182973
0.540088 0.364081 0.166518
0.641027 0.362805 0.140303
0.737472 0.357536 0.113258
0.819562 0.347162 0.085437
0.882949 0.332499 0.057839
0.926976 0.314868 0.032048
0.959601 0.297444 0.006967
0.988461 0.281585 -0.025017
1.013620 0.267846 -0.016998
1.157548 0.272450 -0.012666
0.154004 0.446858 0.167852
0.139853 0.446933 0.169855
0.189925 0.446364 0.165605
0.269910 0.445051 0.162416
0.355602 0.442670 0.156127
0.435341 0.435368 0.149502
0.531026 0.443722 0.133331
0.634969 0.450676 0.109687
0.733572 0.449445 0.080926
0.817452 0.440744 0.054449
0.882123 0.425202 0.029575
0.926531 0.404184 -0.015601
0.959272 0.382154 -0.029771
0.988194 0.362550 -0.020925
1.013098 0.345221 -0.010398
1.156906 0.350553 -0.008851
0.107354 0.529185 0.128666
0.087044 0.529235 0.134370
0.158566 0.528836 0.123788
0.253349 0.527900 0.120154
0.346440 0.526415 0.114138
0.436033 0.523330 0.106500
0.512664 0.512495 0.102473
0.626777 0.536345 0.068194
0.730084 0.542530 0.042868
0.815750 0.534596 0.014658
0.881180 0.516826 -0.033036
0.926074 0.491840 -0.034954
0.959014 0.465616 -0.020683
0.987769 0.441644 -0.009158
1.012180 0.420546 -0.004699
1.155831 0.426720 -0.005261
0.008155 0.626144 0.084046
-0.067663 0.626175 0.097044
0.125690 0.625991 0.057837
0.242250 0.625571 0.054345
0.343671 0.624911 0.048525
0.440797 0.624040 0.039741
0.532510 0.621186 0.030042
0.611071 0.610150 0.025042
0.725483 0.632628 -0.039084
0.814251 0.627751 -0.043433
0.880705 0.608069 -0.031312
0.925783 0.579008 -0.016556
0.958527 0.547839 -0.007085
0.987067 0.519509 -0.004870
1.010810 0.494585 -0.005001
1.154236 0.501630 -0.005501
-0.080444 0.725241 0.032742
-0.100066 0.725266 0.062743
0.112312 0.725226 -0.049949
0.239042 0.725125 -0.050871
0.343619 0.724981 -0.051972
0.442865 0.724831 -0.052664
0.539884 0.724746 -0.052003
0.633013 0.723241 -0.047049
0.717872 0.716503 -0.034538
0.813153 0.719907 -0.020357
0.880085 0.698529 -0.009220
0.925078 0.665031 -0.004980
0.957757 0.629163 -0.005133
0.986092 0.596561 -0.005266
1.008941 0.567612 -0.005318
1.152045 0.575519 -0.005775
-0.074494 0.812839 0.045288
-0.096017 0.812859 0.066919
0.115283 0.812871 -0.033508
0.238142 0.812877 -0.031321
0.341074 0.812870 -0.027847
0.438978 0.812828 -0.022939
0.534649 0.812719 -0.016602
0.629037 0.812507 -0.009873
0.720943 0.811254 -0.005459
0.808738 0.807311 -0.005023
0.878539 0.787242 -0.005233
0.924050 0.750260 -0.005385
0.956722 0.709814 -0.005518
0.984816 0.672928 -0.005624
1.006507 0.639674 -0.005647
1.149181 0.648422 -0.006080
-0.069296 0.878454 0.048901
-0.092628 0.878461 0.065363
0.113782 0.878434 -0.005101
0.231044 0.878369 -0.005122
0.330193 0.878260 -0.005149
0.424667 0.878101 -0.005190
0.517068 0.877886 -0.005262
0.608305 0.877608 -0.005350
0.698782 0.877259 -0.005446
0.788107 0.876522 -0.005547
0.876601 0.875189 -0.005664
0.922778 0.834927 -0.005791
0.955403 0.789836 -0.006153
0.983205 0.748638 -0.005968
1.003441 0.710726 -0.005988
1.145557 0.720275 -0.006411
-0.068985 0.922727 0.040951
-0.092212 0.922734 0.054803
0.108179 0.922709 -0.005625
0.219751 0.922651 -0.005643
0.314080 0.922554 -0.005673
0.403968 0.922413 -0.005702
0.491892 0.922222 -0.005745
0.578725 0.921978 -0.005829
0.664855 0.921672 -0.005915
0.750471 0.921300 -0.005988
0.835839 0.920935 -0.006221
0.922539 0.921180 -0.006246
0.954125 0.869977 -0.006310
0.981213 0.823672 -0.006580
0.999998 0.780672 -0.006340
1.141063 0.790951 -0.006765
-0.068257 0.954157 0.030809
-0.091160 0.954163 0.041307
0.102418 0.954138 -0.006124
0.207709 0.954077 -0.006140
0.296800 0.953976 -0.006154
0.381710 0.953830 -0.006155
0.464772 0.953633 -0.006443
0.546808 0.953380 -0.006292
0.628183 0.953067 -0.006356
0.709078 0.952687 -0.006643
0.789584 0.952235 -0.006513
0.870540 0.952074 -0.006880
0.955210 0.953943 -0.006843
0.979670 0.899628 -0.007013
0.999015 0.852090 -0.006734
1.135558 0.860292 -0.007138
-0.067196 0.978972 0.020843
-0.090122 0.978980 0.028362
0.095429 0.978945 -0.006539
0.195744 0.978862 -0.006553
0.280146 0.978725 -0.006554
0.360488 0.978526 -0.006785
0.439034 0.978257 -0.006609
0.516570 0.977912 -0.006697
0.593448 0.977483 -0.006742
0.669834 0.976960 -0.007010
0.745811 0.976334 -0.006901
0.821415 0.975592 -0.007024
0.898355 0.975623 -0.007155
0.980089 0.978675 -0.007371
0.996278 0.922514 -0.007169
1.125598 0.924442 -0.007518
-0.066286 0.997215 0.009794
-0.089942 0.997223 0.014396
0.086658 0.997192 -0.006819
0.183951 0.997117 -0.006831
0.264479 0.996991 -0.006841
0.340902 0.996806 -0.006859
0.415526 0.996554 -0.006908
0.489151 0.996224 -0.006967
0.562130 0.995806 -0.007016
0.634626 0.995286 -0.007075
0.706721 0.994647 -0.007165
0.778444 0.993864 -0.007265
0.849791 0.992911 -0.007366
0.922041 0.992341 -0.007481
0.994461 0.992379 -0.007818
1.116391 0.986753 -0.007915
-0.143598 1.413284 -0.140336
-0.152157 1.413145 -0.143832
-0.105153 1.412842 -0.149015
0.146280 1.412518 -0.151460
0.242655 1.412193 -0.149943
0.322791 1.411748 -0.146479
0.395873 1.411151 -0.141345
0.464714 1.410398 -0.133842
0.531819 1.409431 -0.124174
0.598931 1.408174 -0.112968
0.666976 1.406548 -0.101119
0.736776 1.404469 -0.089716
0.809708 1.401849 -0.079938
0.885222 1.398000 -0.073010
0.960657 1.395427 -0.069708
1.093656 1.396144 -0.069007
0.243789 -0.971595 0.252820
0.242849 -0.970938 0.259763
0.266799 -0.968965 0.281478
0.315171 -0.968070 0.301243
0.394935 -0.968808 0.334276
0.478149 -0.969378 0.371149
0.571779 -0.970813 0.411013
0.676228 -0.972903 0.453441
0.772831 -0.974884 0.479719
0.851153 -0.976187 0.478109
0.907247 -0.976628 0.440339
0.944957 -0.976238 0.364747
0.977154 -0.975094 0.258555
1.005661 -0.973496 0.114281
1.043502 -0.972160 0.110807
1.183768 -0.971741 0.111520
0.208717 0.188776 0.219967
0.189359 0.185216 0.219921
0.232188 0.192112 0.225991
0.308749 0.186134 0.220352
0.390137 0.169619 0.207121
0.470740 0.163957 0.203101
0.558810 0.148680 0.192359
0.656358 0.123333 0.176496
0.748493 0.092428 0.159517
0.826692 -0.025944 0.136282
0.886996 -0.087314 0.109449
0.929051 -0.107641 0.077662
0.961102 -0.117618 0.026313
0.990189 -0.122889 -0.059539
1.013984 -0.117419 -0.051343
1.158856 -0.116768 -0.050714
0.227265 0.231892 0.243844
0.190689 0.235188 0.224143
0.242227 0.235247 0.230190
0.298547 0.240117 0.243198
0.380805 0.225914 0.216542
0.463483 0.217221 0.206875
0.552965 0.205240 0.194309
0.651794 0.188314 0.175070
0.745267 0.166517 0.150650
0.824600 0.142262 0.123262
0.885771 0.118364 0.095052
0.928362 0.097758 0.068703
0.960616 0.082860 0.046085
0.989776 0.070615 0.022116
1.013670 0.064377 0.033106
1.158636 0.070174 0.031956
0.207236 0.297902 0.228417
0.162307 0.301532 0.203166
0.221862 0.299844 0.206899
0.304475 0.298988 0.203755
0.376039 0.295554 0.226261
0.458249 0.287589 0.202717
0.548344 0.279720 0.184444
0.648046 0.271459 0.162894
0.742640 0.259945 0.137544
0.822962 0.245715 0.109995
0.884875 0.230116 0.082137
0.927935 0.214431 0.056428
0.960367 0.200703 0.034546
0.989522 0.188628 -0.018244
1.013424 0.178964 0.026854
1.158234 0.182894 0.024403
0.178273 0.372780 0.203396
0.127862 0.375536 0.178539
0.191599 0.374023 0.178783
0.279308 0.372400 0.174544
0.370479 0.369026 0.166613
0.450405 0.363042 0.185272
0.541432 0.361572 0.167881
0.642545 0.359503 0.142017
0.738847 0.353526 0.115286
0.820647 0.342641 0.087829
0.883688 0.327678 0.060736
0.927449 0.309956 0.035804
0.959994 0.292583 0.013418
0.989166 0.276803 -0.028642
1.013044 0.263321 0.021834
1.157653 0.267904 0.017594
0.165665 0.446175 0.191899
0.108525 0.448336 0.166011
0.176620 0.447118 0.166517
0.263255 0.445708 0.163323
0.352901 0.443330 0.156836
0.436196 0.436548 0.149611
0.531715 0.442857 0.134879
0.635833 0.448963 0.111700
0.734458 0.447129 0.083417
0.818205 0.437966 0.057522
0.882668 0.422125 0.033747
0.926899 0.401008 0.009170
0.959586 0.379081 -0.023639
0.988784 0.359444 -0.024656
1.012616 0.342074 0.023454
1.157009 0.347465 0.018597
0.123625 0.528652 0.160039
0.015464 0.530332 0.137115
0.140910 0.529445 0.125147
0.245682 0.528457 0.121545
0.342575 0.526893 0.115591
0.434508 0.523825 0.107916
0.513432 0.513453 0.103539
0.627274 0.535749 0.070698
0.730595 0.541233 0.046628
0.816243 0.532863 0.021402
0.881564 0.514869 -0.025841
0.926343 0.489739 -0.029432
0.959253 0.463495 0.003415
0.988245 0.439500 -0.015328
1.011797 0.418226 0.023805
1.155939 0.424481 0.018940
0.056419 0.625745 0.125487
-0.109110 0.627045 0.096722
0.097663 0.626467 0.060750
0.233291 0.626020 0.057398
0.339051 0.625318 0.051855
0.438327 0.624391 0.043610
0.531554 0.621571 0.034660
0.611754 0.610935 0.030160
0.725813 0.632175 -0.032742
0.814542 0.626781 -0.038393
0.880952 0.606812 -0.022683
0.925973 0.577552 0.009836
0.958704 0.546299 0.012298
0.987433 0.517983 -0.010966
1.010519 0.492832 0.023457
1.154344 0.499954 0.018899
-0.053206 0.724971 0.110445
-0.129580 0.725871 0.061620
0.076437 0.725559 -0.045612
0.229558 0.725445 -0.046633
0.338592 0.725279 -0.047829
0.439934 0.725099 -0.048536
0.538235 0.724979 -0.047681
0.632369 0.723508 -0.041793
0.718383 0.717071 -0.024177
0.813358 0.719535 0.010160
0.880242 0.697758 0.014387
0.925206 0.664053 0.014329
0.957879 0.628082 0.013397
0.986360 0.595466 -0.003606
1.008728 0.566278 0.023009
1.152154 0.574246 0.018838
-0.040482 0.812668 0.112762
-0.127071 0.813245 0.063369
0.082731 0.813082 -0.023989
0.228751 0.813084 -0.020101
0.335913 0.813067 -0.011470
0.435752 0.813009 0.008002
0.532602 0.812884 0.012919
0.627827 0.812652 0.015460
0.720451 0.811427 0.016540
0.809084 0.807690 0.017673
0.878657 0.786930 0.016314
0.924130 0.749661 0.015351
0.956803 0.709079 0.014325
0.985002 0.672143 0.004967
1.006358 0.638667 0.022454
1.149288 0.647453 0.018769
-0.025178 0.878349 0.111615
-0.124654 0.878691 0.056603
0.082255 0.878561 0.015926
0.221573 0.878493 0.015988
0.324867 0.878380 0.016084
0.421267 0.878214 0.016220
0.514815 0.877991 0.016398
0.606834 0.877703 0.016636
0.697892 0.877342 0.016887
0.787727 0.876624 0.017431
0.876810 0.875420 0.018778
0.922841 0.834670 0.016796
0.955452 0.789377 0.015367
0.983325 0.748094 0.007695
1.003340 0.709984 0.021798
1.145660 0.719546 0.018683
-0.025500 0.922668 0.105975
-0.123920 0.922862 0.030905
0.078274 0.922780 0.016194
0.210701 0.922720 0.016263
0.308922 0.922621 0.016310
0.400601 0.922477 0.016456
0.489583 0.922282 0.016610
0.577129 0.922032 0.016801
0.663780 0.921722 0.017051
0.749806 0.921344 0.017303
0.835540 0.920991 0.017927
0.922657 0.921313 0.019562
0.954163 0.869775 0.016836
0.981283 0.823325 0.010236
0.999998 0.780147 0.020976
1.141163 0.790417 0.018558
-0.025489 0.954116 0.099871
-0.122502 0.954247 -0.041230
0.074389 0.954184 0.016084
0.199145 0.954122 0.016118
0.291874 0.954020 0.016218
0.378446 0.953872 0.016288
0.462485 0.953672 0.016413
0.545171 0.953417 0.016615
0.627020 0.953100 0.016814
0.708279 0.952717 0.017040
0.789082 0.952261 0.017321
0.870310 0.952109 0.018014
0.955291 0.954033 0.019883
0.979717 0.899474 0.013171
0.998997 0.851773 0.019964
1.135652 0.859922 0.018380
-0.026138 0.978940 0.094409
-0.120882 0.979062 -0.054738
0.067850 0.978998 0.012222
0.187518 0.978914 0.012246
0.275398 0.978775 0.012389
0.357316 0.978573 0.012590
0.436778 0.978301 0.012832
0.514923 0.977953 0.013131
0.592239 0.977519 0.013512
0.668958 0.976993 0.013936
0.745202 0.976362 0.014427
0.821026 0.975615 0.014978
0.898177 0.975653 0.016037
0.980169 0.978757 0.016691
0.996267 0.922359 0.018788
1.125690 0.924215 0.018111
-0.027637 0.997195 0.089821
-0.117652 0.997209 -0.055269
0.059362 0.997162 0.020543
0.176316 0.997087 0.020521
0.260066 0.996962 0.020464
0.337925 0.996777 0.020392
0.413376 0.996526 0.020275
0.487547 0.996196 0.020142
0.560913 0.995779 0.019984
0.633705 0.995259 0.019773
0.706035 0.994619 0.019536
0.777953 0.993837 0.019260
0.849463 0.992884 0.018961
0.921882 0.992329 0.018849
0.994482 0.992400 0.018277
1.116447 0.986617 0.017857
-0.137652 1.413252 -0.147081
-0.173202 1.413306 -0.175238
-0.130091 1.413037 -0.173248
0.126105 1.412716 -0.176312
0.233936 1.412354 -0.177254
0.317338 1.411876 -0.176342
0.392040 1.411260 -0.173852
0.461867 1.410498 -0.169603
0.529657 1.409526 -0.163824
0.597287 1.408265 -0.157076
0.665741 1.406635 -0.150119
0.735878 1.404552 -0.143658
0.809094 1.401925 -0.138097
0.884852 1.398072 -0.133680
0.960499 1.395493 -0.131053
1.093769 1.396226 -0.130316
0.271243 -0.971125 0.304064
0.272014 -0.970658 0.308010
0.290762 -0.969382 0.319027
0.325559 -0.968527 0.331337
0.398514 -0.969153 0.360074
0.480374 -0.969596 0.395063
0.573280 -0.971005 0.433371
0.677227 -0.973071 0.474490
0.773460 -0.975023 0.500104
0.851517 -0.976300 0.498771
0.907433 -0.976718 0.462833
0.945059 -0.976311 0.392147
0.977235 -0.975152 0.298256
1.005752 -0.973541 0.197726
1.043518 -0.972200 0.192948
1.183726 -0.971780 0.194081
0.202994 0.190545 0.249321
0.161922 0.163029 0.266552
0.237462 0.180166 0.271488
0.301100 0.190729 0.270916
0.376953 0.188613 0.269104
0.455200 0.193793 0.269676
0.543316 0.186780 0.265175
0.642489 0.170561 0.257033
0.737524 0.147575 0.244627
0.818727 0.120702 0.229244
0.881795 0.092479 0.212522
0.925780 0.065889 0.196115
0.958423 0.043265 0.181883
0.988089 -0.032609 0.168898
1.012471 -0.031239 0.161905
1.158542 -0.040995 0.161829
0.231028 0.234734 0.271391
0.204071 0.240634 0.279651
0.234814 0.226999 0.279177
0.316284 0.211837 0.270220
0.414286 0.161068 0.227609
0.502512 0.134559 0.205667
0.590699 0.106517 0.189674
0.684201 0.034453 0.168443
0.770301 -0.098981 0.141843
0.842404 -0.129809 0.107890
0.897211 -0.147723 0.052619
0.935642 -0.158210 -0.080115
0.966889 -0.163641 -0.106327
0.997618 -0.169652 -0.125064
1.010042 -0.144250 -0.084884
1.159484 -0.147498 -0.093055
0.206807 0.297741 0.268587
0.187812 0.299190 0.271568
0.124906 0.308860 0.208042
0.313467 0.306601 0.216608
0.385816 0.285823 0.242909
0.470773 0.270049 0.214323
0.562350 0.256561 0.194551
0.661640 0.241968 0.172785
0.754029 0.224631 0.147371
0.831555 0.205835 0.119977
0.890632 0.187252 0.092438
0.931657 0.170395 0.067094
0.963562 0.156919 0.045365
0.995155 0.141099 -0.050355
1.008614 0.148389 0.081111
1.158800 0.147190 0.063162
0.177821 0.372522 0.248873
0.168583 0.371763 0.256164
-0.032797 0.383750 0.173088
0.251242 0.378024 0.177224
0.375265 0.375974 0.167008
0.455741 0.358843 0.201514
0.549272 0.351780 0.177074
0.651504 0.345756 0.151657
0.747129 0.336155 0.125364
0.827342 0.322578 0.098512
0.888391 0.305932 0.072246
0.930588 0.287621 0.048628
0.962756 0.270537 0.029162
0.994258 0.253785 -0.054628
1.008721 0.246203 0.078969
1.158199 0.249019 0.059702
0.165175 0.445949 0.237874
0.160132 0.444786 0.246642
-0.066460 0.455039 0.158165
0.230097 0.449723 0.170304
0.340587 0.447006 0.162762
0.439498 0.441596 0.152933
0.535529 0.440066 0.144302
0.641042 0.442595 0.121921
0.739958 0.437886 0.094590
0.823034 0.426437 0.069816
0.886270 0.409008 0.047676
0.929421 0.387136 0.028610
0.961864 0.365405 0.016724
0.993222 0.345238 -0.053579
1.008883 0.330298 0.079596
1.157557 0.335112 0.060021
0.123077 0.528490 0.216528
0.118847 0.527416 0.226418
-0.122922 0.535845 0.118859
0.206497 0.531777 0.129604
0.324838 0.529726 0.123859
0.427813 0.526449 0.116062
0.516154 0.517311 0.110660
0.630018 0.533917 0.081915
0.733860 0.536503 0.060724
0.819502 0.526113 0.039564
0.884199 0.506666 0.021642
0.928273 0.480762 0.014540
0.961059 0.454279 0.022074
0.991992 0.430029 -0.051084
1.008689 0.409415 0.079794
1.156498 0.415691 0.060184
0.055969 0.625670 0.198451
0.050685 0.624751 0.209886
-0.155444 0.631586 0.054046
0.185687 0.628693 0.069935
0.317525 0.627714 0.065079
0.427387 0.626413 0.058040
0.527392 0.623473 0.050654
0.614033 0.613874 0.047145
0.727629 0.630701 0.019973
0.816518 0.623200 0.009005
0.882733 0.601746 0.021335
0.927387 0.571565 0.026779
0.960089 0.539992 0.025966
0.990493 0.511452 -0.050489
1.008006 0.485996 0.079579
1.154905 0.493441 0.060057
-0.053174 0.724951 0.192224
-0.055828 0.724255 0.204012
-0.169553 0.729212 -0.073408
0.178236 0.727377 -0.022997
0.314919 0.727059 -0.026274
0.426718 0.726669 -0.028152
0.531006 0.726290 -0.026626
0.629524 0.724756 0.004527
0.720004 0.719084 0.026462
0.814492 0.718277 0.030612
0.881360 0.694898 0.030936
0.926191 0.660213 0.029027
0.958896 0.623763 0.026331
0.988774 0.590927 -0.050046
1.006756 0.560925 0.079270
1.152711 0.569338 0.059891
-0.039885 0.812668 0.191923
-0.040142 0.812167 0.203424
-0.168475 0.815527 -0.078160
0.176924 0.814387 0.024285
0.310985 0.814290 0.026700
0.420983 0.814122 0.029317
0.523582 0.813854 0.031536
0.622637 0.813456 0.032861
0.718301 0.812193 0.033668
0.810114 0.808970 0.035481
0.879318 0.785850 0.031790
0.924755 0.747409 0.029242
0.957508 0.706230 0.026674
0.986836 0.669037 -0.049416
1.004856 0.634507 0.078847
1.149837 0.643750 0.059677
-0.024580 0.878337 0.186913
-0.017862 0.878002 0.198072
-0.167256 0.880091 -0.088275
0.171227 0.879316 0.031343
0.300108 0.879163 0.031384
0.406044 0.878940 0.031433
0.504925 0.878644 0.031480
0.600470 0.878269 0.031548
0.694093 0.877809 0.031665
0.786070 0.877067 0.032219
0.877402 0.876179 0.034311
0.923214 0.833756 0.030061
0.955898 0.787669 0.027065
0.984651 0.746063 -0.048489
1.002233 0.706826 0.078378
1.146195 0.716792 0.059547
-0.024916 0.922657 0.177740
-0.006122 0.922437 0.188537
-0.166561 0.923711 -0.101056
0.162522 0.923222 0.029502
0.284885 0.923102 0.029536
0.385478 0.922930 0.029577
0.479393 0.922698 0.029659
0.570169 0.922404 0.029736
0.659150 0.922042 0.029841
0.746968 0.921606 0.030000
0.834248 0.921236 0.030674
0.922978 0.921749 0.033060
0.954426 0.869061 0.028136
0.982176 0.822131 -0.047219
0.999998 0.778182 0.077372
1.141683 0.788428 0.058955
-0.024903 0.954105 0.167830
0.006560 0.953921 0.178008
-0.164898 0.954893 -0.110172
0.153481 0.954503 0.027433
0.268861 0.954388 0.027465
0.363752 0.954221 0.027505
0.452359 0.953997 0.027595
0.538010 0.953712 0.027679
0.621978 0.953361 0.027800
0.704855 0.952939 0.027954
0.786949 0.952441 0.028127
0.869319 0.952274 0.028913
0.955503 0.954327 0.031504
0.980273 0.899009 -0.045056
0.998808 0.850498 0.075861
1.136145 0.858571 0.057945
-0.025605 0.978925 0.158669
-0.029664 0.978796 0.167540
-0.166287 0.979930 -0.120596
0.139394 0.979579 -0.045588
0.251475 0.979421 -0.045493
0.341977 0.979192 -0.045380
0.426093 0.978886 -0.045217
0.507226 0.978495 -0.045007
0.586655 0.978013 -0.044749
0.664969 0.977429 -0.044439
0.742471 0.976737 -0.044038
0.819321 0.975922 -0.043601
0.897388 0.975916 -0.042571
0.980553 0.979153 -0.059627
0.996142 0.921695 0.070430
1.126154 0.923414 0.057046
-0.027207 0.997181 0.150571
-0.040817 0.997083 0.158482
-0.143592 0.996955 -0.086583
0.146159 0.996768 0.076026
0.244209 0.996647 0.075968
0.327455 0.996470 0.075901
0.405844 0.996226 0.075801
0.481896 0.995908 0.075681
0.556591 0.995504 0.075521
0.630386 0.994999 0.075342
0.703513 0.994376 0.075108
0.776090 0.993611 0.074816
0.848167 0.992679 0.074557
0.921220 0.992214 0.071056
0.994509 0.992425 0.061710
1.116789 0.986187 0.056284
-0.132402 1.413416 -0.136723
-0.148850 1.413409 -0.143914
-0.206975 1.413924 -0.226622
-0.104254 1.413476 -0.214013
0.193238 1.413011 -0.215624
0.293787 1.412443 -0.216566
0.375859 1.411784 -0.216543
0.449993 1.411001 -0.215223
0.520724 1.410015 -0.212515
0.590553 1.408740 -0.208711
0.660742 1.407094 -0.204372
0.732298 1.404993 -0.199951
0.806704 1.402345 -0.195570
0.883470 1.398465 -0.191323
0.959985 1.395867 -0.188317
1.094332 1.396649 -0.187344
0.303660 -0.971580 0.374545
0.307277 -0.971236 0.377317
0.332823 -0.970724 0.389909
0.367328 -0.970172 0.400486
0.411497 -0.970059 0.407281
0.489235 -0.970254 0.439059
0.579644 -0.971605 0.474882
0.681632 -0.973608 0.513662
0.776294 -0.975485 0.537759
0.853172 -0.976690 0.536417
0.908286 -0.977053 0.502979
0.945525 -0.976603 0.439232
0.977592 -0.975408 0.360091
1.006157 -0.973761 0.287340
1.043606 -0.972402 0.280704
1.183586 -0.971978 0.282348
0.196973 0.183302 0.310037
0.142363 0.143826 0.351418
0.228424 0.170423 0.338071
0.307759 0.186141 0.333112
0.376093 0.190650 0.326703
0.454783 0.194351 0.327384
0.543050 0.186164 0.325644
0.642257 0.169584 0.322624
0.737338 0.146480 0.314809
0.818595 0.119628 0.302368
0.881714 0.091511 0.286587
0.925733 0.065075 0.269024
0.958398 0.042590 0.252377
0.988059 -0.032231 0.237394
1.012443 -0.030772 0.226948
1.158497 -0.040859 0.228890
0.208348 0.230886 0.321908
0.180357 0.231364 0.330634
0.131733 0.139198 0.348783
0.329665 0.157298 0.354669
0.408019 0.167937 0.330724
0.488490 0.167516 0.322825
0.572186 0.161005 0.315292
0.664630 0.147179 0.307920
0.752832 0.126852 0.296904
0.828721 0.102334 0.282521
0.887813 0.076190 0.265820
0.929352 0.052042 0.248344
0.961463 0.022111 0.231811
0.994049 -0.075001 0.211699
1.007229 0.047073 0.209487
1.158811 -0.025055 0.208650
0.216608 0.301047 0.329966
0.203561 0.306112 0.332143
0.157994 0.320374 0.350497
0.297713 0.287198 0.341471
0.402160 0.245063 0.315903
0.499587 0.185209 0.263295
0.605225 0.121796 0.219038
0.707584 -0.066652 0.185082
0.794328 -0.135576 0.143823
0.862215 -0.165642 0.086371
0.911212 -0.183093 -0.086189
0.945792 -0.193317 -0.127492
0.977563 -0.199286 -0.148459
1.013955 -0.205330 -0.164707
1.001665 -0.148495 -0.072704
1.160732 -0.159796 -0.101851
0.176755 0.372016 0.316278
0.168175 0.371339 0.317269
0.122835 0.379644 0.309949
-0.131304 0.391227 0.178720
0.397428 0.387629 0.178358
0.470469 0.348795 0.268626
0.567247 0.329124 0.222808
0.671020 0.313403 0.192785
0.764931 0.294774 0.164728
0.841612 0.274201 0.136859
0.898380 0.252896 0.109932
0.937437 0.232489 0.085654
0.969394 0.214953 0.063563
1.008330 0.190739 -0.083488
1.000000 0.222227 0.154039
1.159467 0.212284 0.120407
0.164037 0.445505 0.305029
0.159549 0.444380 0.309027
0.137761 0.448203 0.298213
-0.134509 0.466731 0.172677
0.309886 0.456973 0.191327
0.451765 0.454658 0.171662
0.545692 0.434585 0.190449
0.653391 0.429168 0.163240
0.752504 0.417878 0.135354
0.833828 0.401198 0.110811
0.894202 0.380113 0.088622
0.935035 0.356520 0.069741
0.967201 0.334795 0.055898
1.002367 0.311840 -0.082035
1.000072 0.314113 0.155363
1.158813 0.313098 0.120420
0.121783 0.528174 0.291791
0.118208 0.527108 0.297134
0.098503 0.529254 0.281090
-0.160085 0.546948 0.122973
0.280743 0.537382 0.159437
0.413402 0.533752 0.150675
0.524269 0.527440 0.142234
0.637156 0.530692 0.123275
0.741745 0.526994 0.106279
