assets/Assets/Summer Haze.cube
LUT_3D_SIZE 16
0.124975 0.124172 0.131139
0.122629 0.138495 0.144750
0.158493 0.155546 0.161561
0.220582 0.158991 0.165752
0.292489 0.147768 0.155998
0.363880 0.145944 0.154756
0.440341 0.138702 0.148473
0.522910 0.126469 0.137834
0.605334 0.109621 0.123522
0.685503 0.088252 0.106389
0.763791 0.060058 0.086942
0.839653 -0.028875 0.065846
0.912828 -0.058214 0.043614
0.973697 -0.067721 0.010504
1.014411 -0.065936 0.018739
1.160070 -0.063540 0.027603
0.151443 0.134030 0.157121
0.136290 0.130787 0.154865
0.161610 0.149513 0.168001
0.221106 0.152541 0.167588
0.292678 0.139364 0.156145
0.364022 0.136327 0.154957
0.440475 0.128001 0.148787
0.523030 0.113892 0.138231
0.605437 0.093276 0.123983
0.685586 0.063096 0.106902
0.763853 -0.041352 0.087502
0.839698 -0.072641 0.066455
0.912880 -0.085113 0.044357
0.973730 -0.090780 0.014184
1.014449 -0.090220 0.019942
1.160092 -0.087593 0.027952
0.164882 0.173763 0.171223
0.156992 0.172784 0.170272
0.180843 0.172454 0.169843
0.226491 0.184534 0.183096
0.293912 0.176515 0.161110
0.363952 0.172066 0.154566
0.439896 0.166354 0.147135
0.522343 0.158325 0.135823
0.604825 0.147485 0.121198
0.685104 0.135021 0.103963
0.763503 0.122367 0.084516
0.839477 0.110986 0.063446
0.912805 0.102548 0.041227
0.973617 0.095077 0.006568
1.014340 0.089108 0.016957
1.159935 0.094669 0.025125
0.146497 0.230371 0.154988
0.138027 0.230274 0.154759
0.175649 0.229900 0.153846
0.234635 0.229097 0.151827
0.293807 0.232186 0.172547
0.362521 0.229449 0.154799
0.438133 0.226713 0.142720
0.520634 0.223777 0.129706
0.603395 0.219077 0.114408
0.684006 0.213332 0.096850
0.762719 0.207699 0.077236
0.839031 0.202786 0.055961
0.912538 0.198986 0.032806
0.973336 0.193781 -0.018089
1.014067 0.186575 -0.003682
1.159570 0.190783 0.017388
0.124319 0.294077 0.135218
0.112162 0.294088 0.135231
0.157174 0.293726 0.134720
0.223164 0.292848 0.132419
0.291909 0.290266 0.127892
0.358753 0.290636 0.144998
0.434677 0.293286 0.135226
0.517710 0.294183 0.118930
0.601098 0.293236 0.102463
0.682313 0.290871 0.084418
0.761605 0.288163 0.064304
0.838506 0.285458 0.041806
0.912004 0.282685 0.005230
0.972863 0.277129 -0.025017
1.013622 0.267847 -0.016998
1.159004 0.272497 -0.012622
0.122854 0.357298 0.133964
0.109379 0.357334 0.134030
0.152596 0.356966 0.133331
0.216663 0.356147 0.131737
0.285298 0.354595 0.128198
0.348940 0.348961 0.124337
0.428623 0.358748 0.115959
0.513653 0.365768 0.102458
0.598108 0.367796 0.083888
0.680303 0.367840 0.064523
0.760513 0.367063 0.041844
0.837626 0.365386 -0.015601
0.911263 0.362990 -0.029771
0.972329 0.356724 -0.020925
1.013100 0.345222 -0.010398
1.158360 0.350607 -0.008835
0.095553 0.427354 0.110861
0.074771 0.427386 0.110958
0.135245 0.427104 0.110087
0.208196 0.426464 0.108078
0.281860 0.425442 0.104727
0.353361 0.423138 0.100439
0.414533 0.414398 0.098301
0.507458 0.434700 0.075849
0.595080 0.442613 0.054519
0.678468 0.444729 0.025273
0.759139 0.445169 -0.033036
0.836681 0.444293 -0.034954
0.910677 0.442136 -0.020683
0.971478 0.434359 -0.009158
1.012182 0.420547 -0.004699
1.157284 0.426783 -0.005267
0.013938 0.506950 0.068566
-0.067733 0.506975 0.068718
0.110327 0.506827 0.067485
0.199180 0.506488 0.064581
0.279629 0.505955 0.059561
0.357441 0.505250 0.051655
0.431304 0.502946 0.042312
0.494803 0.494058 0.037157
0.590962 0.515276 -0.039084
0.676856 0.521733 -0.043433
0.758450 0.523615 -0.031312
0.836082 0.522898 -0.016556
0.909567 0.519855 -0.007085
0.970072 0.510564 -0.004870
1.010812 0.494586 -0.005001
1.155686 0.501702 -0.005506
-0.080444 0.590746 -0.049770
-0.100066 0.590768 -0.049536
0.087967 0.590732 -0.049949
0.193535 0.590642 -0.050871
0.279221 0.590514 -0.051972
0.360317 0.590380 -0.052664
0.439520 0.590304 -0.052003
0.515415 0.588964 -0.047049
0.584206 0.583091 -0.034538
0.675681 0.598192 -0.020357
0.757555 0.601275 -0.009220
0.834634 0.600011 -0.004980
0.907806 0.596350 -0.005133
0.968122 0.585690 -0.005266
1.008943 0.567613 -0.005318
1.153492 0.575600 -0.005779
-0.074494 0.675345 -0.035016
-0.096017 0.675366 -0.034629
0.094633 0.675379 -0.033508
0.197526 0.675386 -0.031321
0.283242 0.675378 -0.027847
0.364667 0.675333 -0.022939
0.444177 0.675217 -0.016602
0.522570 0.674990 -0.009873
0.598663 0.673656 -0.005459
0.670992 0.669808 -0.005023
0.755337 0.676843 -0.005233
0.832536 0.675957 -0.005385
0.905437 0.671764 -0.005518
0.965571 0.659778 -0.005624
1.006509 0.639675 -0.005647
1.150624 0.648511 -0.006084
-0.069296 0.755215 -0.005095
-0.092628 0.755225 -0.005092
0.097808 0.755187 -0.005101
0.198614 0.755094 -0.005122
0.283827 0.754939 -0.005149
0.364993 0.754713 -0.005190
0.444339 0.754407 -0.005262
0.522635 0.754012 -0.005350
0.600215 0.753517 -0.005446
0.676573 0.752476 -0.005547
0.752587 0.751375 -0.005664
0.829967 0.750952 -0.005791
0.902403 0.746020 -0.006153
0.962342 0.732752 -0.005968
1.003443 0.710728 -0.005988
1.146994 0.720372 -0.006415
-0.068985 0.829865 -0.005619
-0.092212 0.829878 -0.005617
0.097280 0.829829 -0.005625
0.197612 0.829713 -0.005643
0.282404 0.829518 -0.005673
0.363159 0.829234 -0.005702
0.442090 0.828853 -0.005745
0.519963 0.828364 -0.005829
0.597107 0.827755 -0.005915
0.673669 0.827016 -0.005988
0.749940 0.826291 -0.006221
0.829488 0.828266 -0.006246
0.899455 0.820129 -0.006310
0.958331 0.804464 -0.006580
0.999990 0.780666 -0.006340
1.142490 0.791056 -0.006769
-0.068257 0.899528 -0.006081
-0.091160 0.899543 -0.006105
0.096544 0.899485 -0.006124
0.195791 0.899345 -0.006140
0.279729 0.899112 -0.006154
0.359676 0.898773 -0.006155
0.437812 0.898318 -0.006443
0.514892 0.897734 -0.006292
0.591234 0.897009 -0.006356
0.666983 0.896131 -0.006643
0.742195 0.895084 -0.006513
0.818090 0.894712 -0.006880
0.901959 0.900762 -0.006843
0.955204 0.877161 -0.007013
0.995834 0.849377 -0.006734
1.136971 0.860404 -0.007142
-0.067196 0.953783 -0.006702
-0.090122 0.953799 -0.006511
0.092967 0.953728 -0.006539
0.190683 0.953559 -0.006553
0.272862 0.953279 -0.006554
0.351036 0.952871 -0.006785
0.427394 0.952321 -0.006609
0.502679 0.951615 -0.006697
0.577208 0.950734 -0.006742
0.651115 0.949659 -0.007010
0.724447 0.948367 -0.006901
0.797197 0.946828 -0.007024
0.871900 0.946892 -0.007155
0.956055 0.954676 -0.007371
0.989123 0.915888 -0.007169
1.126978 0.924530 -0.007522
-0.066286 0.991271 -0.006783
-0.089942 0.991291 -0.006803
0.086138 0.991218 -0.006819
0.182830 0.991043 -0.006831
0.262823 0.990749 -0.006841
0.338684 0.990322 -0.006859
0.412687 0.989746 -0.006908
0.485605 0.989002 -0.006967
0.557764 0.988072 -0.007016
0.629299 0.986932 -0.007075
0.700259 0.985552 -0.007165
0.770634 0.983893 -0.007265
0.840369 0.981903 -0.007366
0.911248 0.980725 -0.007481
0.985157 0.983094 -0.007818
1.117718 0.986791 -0.007916
-0.144379 1.417548 -0.141685
-0.152785 1.417408 -0.145216
-0.107085 1.417102 -0.150451
0.145911 1.416777 -0.152921
0.242452 1.416451 -0.151389
0.322631 1.416006 -0.147889
0.395704 1.415409 -0.142703
0.464503 1.414656 -0.135124
0.531557 1.413688 -0.125357
0.598625 1.412430 -0.114038
0.666640 1.410802 -0.102068
0.736435 1.408719 -0.090549
0.809399 1.406092 -0.080671
0.884960 1.402216 -0.073672
0.960410 1.399593 -0.070333
1.094771 1.400288 -0.069617
0.178264 -0.978441 0.191761
0.171731 -0.977795 0.197482
0.193022 -0.976001 0.214899
0.242197 -0.975253 0.221910
0.308595 -0.975813 0.216368
0.379430 -0.975717 0.214045
0.458521 -0.975973 0.207510
0.545723 -0.976458 0.197061
0.633379 -0.976972 0.183282
0.718279 -0.977285 0.167416
0.800142 -0.977208 0.150879
0.877819 -0.976578 0.135407
0.949865 -0.975277 0.122796
1.005615 -0.973592 0.113297
1.043454 -0.972257 0.109775
1.185130 -0.971833 0.110502
0.152556 0.133610 0.162923
0.134383 0.130326 0.163142
0.173391 0.136688 0.167861
0.236947 0.130541 0.161668
0.304577 0.113082 0.149134
0.373043 0.110104 0.147817
0.447455 0.098019 0.140829
0.528495 0.074157 0.128967
0.609823 -0.028665 0.112608
0.689183 -0.079311 0.091998
0.766849 -0.101127 0.065633
0.842224 -0.113960 0.014395
0.915030 -0.120767 -0.053464
0.976194 -0.124239 -0.066549
1.013936 -0.118412 -0.054379
1.160264 -0.117762 -0.053794
0.169261 0.173242 0.183452
0.135279 0.175983 0.166138
0.182195 0.176248 0.171919
0.229234 0.181063 0.183637
0.297397 0.169722 0.161686
0.367463 0.164373 0.155393
0.443033 0.157460 0.148015
0.524990 0.147943 0.136824
0.607040 0.135316 0.122342
0.686966 0.120646 0.105288
0.765078 0.105221 0.086116
0.840818 0.090600 0.065540
0.913953 0.079076 0.044392
0.975369 0.066763 -0.016836
1.013626 0.066973 0.039111
1.160050 0.072304 0.037609
0.154062 0.229618 0.172084
0.107555 0.232398 0.147020
0.166728 0.231316 0.153982
0.235807 0.231351 0.152571
0.295037 0.230155 0.173433
0.364276 0.226014 0.155648
0.440116 0.222415 0.143634
0.522546 0.218643 0.130795
0.605133 0.213213 0.115658
0.685550 0.206849 0.098325
0.764075 0.200694 0.079067
0.840213 0.195371 0.058456
0.913580 0.191307 0.037071
0.974949 0.185598 -0.023489
1.013412 0.179809 0.036566
1.159684 0.183637 0.033747
0.134461 0.293422 0.155640
0.070031 0.295582 0.125706
0.145986 0.294514 0.135160
0.218796 0.293668 0.132804
0.292842 0.291680 0.127969
0.359512 0.289593 0.146838
0.435748 0.291240 0.136191
0.518930 0.291524 0.120151
0.602327 0.290061 0.103912
0.683482 0.287290 0.086195
0.762680 0.284265 0.066657
0.839482 0.281323 0.045482
0.912894 0.278389 0.021263
0.974280 0.272620 -0.028642
1.013046 0.263810 0.033676
1.159115 0.268306 0.028783
0.133181 0.356761 0.154000
0.069366 0.358488 0.124611
0.142054 0.357578 0.134057
0.211390 0.356681 0.132465
0.283177 0.355142 0.128808
0.349694 0.349974 0.124615
0.429177 0.358065 0.117166
0.514346 0.364413 0.103954
0.598901 0.366008 0.085776
0.681118 0.365711 0.067066
0.761310 0.364671 0.045975
0.838390 0.362797 0.017941
0.911977 0.360251 -0.023639
0.973513 0.353884 -0.024656
1.012618 0.342435 0.035450
1.158469 0.347780 0.029954
0.109761 0.426929 0.136183
-0.062518 0.428298 0.098297
0.122402 0.427597 0.111168
0.202265 0.426916 0.109189
0.278831 0.425831 0.105893
0.352169 0.423545 0.101606
0.415177 0.415194 0.099290
0.507860 0.434242 0.077850
0.595539 0.441640 0.057887
0.678999 0.443450 0.033205
0.759698 0.443650 -0.025841
0.837237 0.442584 -0.029432
0.911220 0.440297 0.008572
0.972431 0.432465 -0.015328
1.011799 0.418490 0.035829
1.157397 0.424739 0.030355
0.066261 0.506627 0.109916
-0.109135 0.507680 0.034553
0.091526 0.507212 0.069901
0.192347 0.506852 0.067156
0.276057 0.506284 0.062452
0.355528 0.505534 0.055188
0.430568 0.503256 0.046859
0.495353 0.494691 0.042430
0.591256 0.514946 -0.032742
0.677169 0.521004 -0.038393
0.758808 0.522657 -0.022683
0.836472 0.521771 0.018890
0.909970 0.518595 0.022245
0.970805 0.509260 -0.010966
1.010521 0.493025 0.035453
1.155799 0.500174 0.030312
-0.053206 0.590505 0.085743
-0.129580 0.591308 -0.076106
0.057232 0.591029 -0.045612
0.185977 0.590928 -0.046633
0.275242 0.590780 -0.047829
0.358008 0.590619 -0.048536
0.438228 0.590512 -0.047681
0.514926 0.589202 -0.041793
0.584657 0.583589 -0.024177
0.675900 0.597947 0.019348
0.757781 0.600727 0.024927
0.834895 0.599286 0.024855
0.908087 0.595486 0.023673
0.968658 0.584780 -0.003606
1.008730 0.566419 0.034968
1.153604 0.574440 0.030248
-0.040482 0.675162 0.091803
-0.127071 0.675779 -0.069275
0.067918 0.675605 -0.023989
0.189950 0.675607 -0.020101
0.279097 0.675588 -0.011470
0.362125 0.675527 0.016225
0.442600 0.675393 0.023053
0.521657 0.675145 0.026267
0.598321 0.673840 0.027578
0.671357 0.670201 0.028926
0.755505 0.676658 0.027311
0.832699 0.675527 0.026130
0.905622 0.671189 0.024850
0.965943 0.659146 0.011372
1.006360 0.638770 0.034362
1.150733 0.647630 0.030172
-0.025178 0.755066 0.095460
-0.124654 0.755554 -0.063230
0.072969 0.755369 0.026831
0.191051 0.755272 0.026907
0.279587 0.755110 0.027025
0.362302 0.754874 0.027193
0.442572 0.754556 0.027412
0.521497 0.754146 0.027691
0.599541 0.753635 0.027992
0.676323 0.752620 0.028641
0.752882 0.751689 0.030225
0.830093 0.750803 0.027883
0.902516 0.745670 0.026150
0.962582 0.732326 0.015771
1.003342 0.710057 0.033636
1.147099 0.719711 0.030076
-0.025500 0.829746 0.094926
-0.123920 0.830135 -0.062691
0.072659 0.829971 0.027161
0.190059 0.829851 0.027247
0.278111 0.829652 0.027306
0.360373 0.829362 0.027479
0.440195 0.828972 0.027660
0.518668 0.828473 0.027888
0.596250 0.827854 0.028193
0.673153 0.827103 0.028492
0.749748 0.826402 0.029231
0.829725 0.828516 0.031125
0.899544 0.820001 0.027931
0.958473 0.804199 0.019459
0.999990 0.780188 0.032721
1.142591 0.790573 0.029935
-0.025489 0.899435 0.093923
-0.122502 0.899738 -0.061912
0.072303 0.899591 0.027024
0.188281 0.899449 0.027066
0.275419 0.899213 0.027191
0.356832 0.898870 0.027278
0.435831 0.898408 0.027429
0.513486 0.897818 0.027666
0.590246 0.897086 0.027904
0.666315 0.896199 0.028179
0.741785 0.895143 0.028512
0.817934 0.894792 0.029335
0.902145 0.900957 0.031489
0.955299 0.877065 0.023388
0.995783 0.849061 0.031580
1.137067 0.860071 0.029736
-0.026138 0.953718 0.091863
-0.120882 0.953965 -0.061873
0.067624 0.953836 0.022142
0.183047 0.953664 0.022174
0.268464 0.953380 0.022368
0.348111 0.952968 0.022629
0.425325 0.952412 0.022940
0.501179 0.951698 0.023334
0.576117 0.950809 0.023818
0.650334 0.949726 0.024367
0.723912 0.948424 0.024978
0.796863 0.946876 0.025667
0.871770 0.946956 0.026967
0.956217 0.954840 0.027757
0.989098 0.915734 0.030237
1.127071 0.924328 0.029437
-0.027637 0.991225 0.089251
-0.117652 0.991259 -0.056910
0.062677 0.991148 0.032242
0.176054 0.990973 0.032217
0.258891 0.990681 0.032151
0.336022 0.990255 0.032067
0.410756 0.989681 0.031933
0.484156 0.988939 0.031781
0.556657 0.988011 0.031602
0.628453 0.986873 0.031366
0.699621 0.985494 0.031094
0.770167 0.983836 0.030774
0.840046 0.981847 0.030433
0.911090 0.980699 0.030308
0.985202 0.983140 0.029635
1.117775 0.986669 0.029142
-0.138763 1.417516 -0.149468
-0.173763 1.417571 -0.176433
-0.132038 1.417300 -0.175324
0.125601 1.416977 -0.178418
0.233684 1.416615 -0.179369
0.317150 1.416136 -0.178447
0.391851 1.415520 -0.175931
0.461642 1.414758 -0.171637
0.529385 1.413785 -0.165798
0.596973 1.412523 -0.158979
0.665399 1.410890 -0.151950
0.735532 1.408803 -0.145420
0.808782 1.406170 -0.139799
0.884588 1.402289 -0.135337
0.960250 1.399660 -0.132676
1.094887 1.400372 -0.131919
0.182612 -0.978209 0.233285
0.180565 -0.977751 0.236501
0.202901 -0.976537 0.245414
0.247281 -0.975713 0.255479
0.311673 -0.976104 0.256316
0.381390 -0.975857 0.256810
0.459830 -0.976079 0.253877
0.546625 -0.976549 0.248249
0.634027 -0.977053 0.239988
0.718757 -0.977358 0.230239
0.800497 -0.977271 0.220327
0.878076 -0.976632 0.211339
0.950045 -0.975322 0.203982
1.005710 -0.973629 0.197312
1.043474 -0.972289 0.192516
1.185092 -0.971864 0.193663
0.146872 0.135292 0.188049
0.105087 0.106289 0.203290
0.176932 0.124266 0.206395
0.230715 0.135347 0.205463
0.293730 0.134466 0.204711
0.360200 0.142491 0.207961
0.434843 0.140253 0.207338
0.517146 0.131769 0.204060
0.599858 0.118616 0.198308
0.680455 0.102071 0.191222
0.759174 0.082808 0.183959
0.835420 0.061402 0.177395
0.908942 0.037690 0.172077
0.971971 -0.040074 0.165210
1.012427 -0.036487 0.161317
1.159966 -0.044852 0.161239
0.172655 0.175800 0.206493
0.148585 0.180393 0.213284
0.175712 0.169060 0.212820
0.243452 0.156008 0.205499
0.324972 0.102848 0.167295
0.399868 0.056290 0.144210
0.473910 -0.070058 0.124272
0.552224 -0.104226 0.099209
0.630587 -0.126590 0.061005
0.707368 -0.142660 -0.060888
0.782892 -0.154152 -0.091868
0.856528 -0.161642 -0.107865
0.927959 -0.165409 -0.116312
0.992099 -0.170314 -0.126784
1.009994 -0.144999 -0.086432
1.160938 -0.148257 -0.094501
0.153873 0.229594 0.205682
0.136073 0.230717 0.207866
-0.053759 0.238515 0.142279
0.243514 0.237981 0.164538
0.303002 0.222128 0.186896
0.374563 0.211350 0.164866
0.451485 0.203094 0.151521
0.533708 0.194560 0.138322
0.615537 0.184805 0.122956
0.695051 0.174600 0.105714
0.772688 0.165045 0.086968
0.848011 0.156953 0.067586
0.920699 0.150997 0.048949
0.986570 0.139237 -0.052571
1.008592 0.150331 0.085547
1.160290 0.149727 0.070804
0.134299 0.293291 0.193332
0.125316 0.292616 0.198857
-0.119092 0.302642 0.093712
0.196222 0.298301 0.135333
0.297080 0.297646 0.129443
0.363908 0.286335 0.160023
0.442089 0.283345 0.143298
0.526233 0.280574 0.127483
0.609839 0.276481 0.111450
0.690829 0.271607 0.094254
0.769675 0.266908 0.075810
0.846069 0.262708 0.057037
0.919101 0.258920 0.039625
0.984725 0.251292 -0.054633
1.008723 0.247347 0.084515
1.159711 0.250423 0.068921
0.132962 0.356622 0.190676
0.128449 0.355620 0.197387
-0.109879 0.364243 0.092124
0.185335 0.359999 0.138284
0.273594 0.358214 0.133902
0.352632 0.354300 0.128138
0.432280 0.355929 0.124666
0.518572 0.359450 0.111735
0.603867 0.359018 0.094278
0.686394 0.357096 0.076953
0.766654 0.354766 0.058813
0.843683 0.351910 0.040865
0.917126 0.348633 0.027796
0.982548 0.341489 -0.053579
1.008885 0.331019 0.085005
1.159061 0.336047 0.069187
0.109488 0.426820 0.179258
0.105789 0.425922 0.186607
-0.131997 0.432909 -0.007927
0.172401 0.429630 0.115683
0.265034 0.428150 0.112546
0.346977 0.425707 0.108213
0.417480 0.418404 0.105364
0.510084 0.432872 0.086653
0.598480 0.438197 0.069923
0.682535 0.438642 0.051489
0.763566 0.437752 0.033465
0.841260 0.435818 0.025122
0.915312 0.432884 0.033943
0.980009 0.424807 -0.051084
1.008691 0.409920 0.085157
1.157993 0.416387 0.069320
0.065907 0.506567 0.164986
0.061363 0.505823 0.173417
-0.155444 0.511366 -0.098614
0.156552 0.509018 0.077402
0.259426 0.508224 0.073491
0.347038 0.507170 0.067693
0.427349 0.504792 0.061414
0.497187 0.497059 0.058344
0.592879 0.513963 0.031590
0.679297 0.518494 0.017710
0.761405 0.519172 0.033128
0.839406 0.517544 0.038981
0.913119 0.513776 0.038133
0.976955 0.504440 -0.050489
1.008008 0.486370 0.084992
1.156391 0.493990 0.069217
-0.053174 0.590487 0.154738
-0.055828 0.589867 0.164275
-0.169553 0.594297 -0.122709
0.144951 0.592654 -0.022997
0.256428 0.592369 -0.026274
0.347552 0.592021 -0.028152
0.432545 0.591682 -0.026626
0.512752 0.590313 0.010617
0.586091 0.585343 0.038646
0.677115 0.597211 0.042887
0.759400 0.598876 0.043208
0.836922 0.596731 0.041287
0.910407 0.592366 0.038509
0.973492 0.581776 -0.050046
1.006758 0.561207 0.084750
1.154187 0.569787 0.069079
-0.039885 0.675162 0.158616
-0.040142 0.674628 0.168198
-0.168475 0.678228 -0.121078
0.148642 0.677002 0.036346
0.259274 0.676898 0.038897
0.350435 0.676718 0.041580
0.435512 0.676431 0.043805
0.517633 0.676004 0.045109
0.596757 0.674656 0.045900
0.672446 0.671498 0.047644
0.756452 0.676109 0.044057
0.833973 0.674129 0.041504
0.907237 0.669252 0.038869
0.969610 0.657345 -0.049416
1.004858 0.634720 0.084420
1.151303 0.644126 0.068901
-0.024580 0.755048 0.160457
-0.017862 0.754572 0.170133
-0.167256 0.757564 -0.119740
0.149498 0.756449 0.043611
0.259097 0.756229 0.043652
0.349780 0.755910 0.043701
0.434520 0.755487 0.043749
0.516395 0.754951 0.043817
0.596571 0.754297 0.043936
0.675159 0.753245 0.044477
0.753720 0.752670 0.046517
0.830845 0.750382 0.042331
0.903542 0.744591 0.039275
0.965241 0.731346 -0.048489
1.002235 0.706984 0.084058
1.147651 0.717112 0.068795
-0.024916 0.829724 0.159668
-0.006122 0.829283 0.169492
-0.166561 0.831849 -0.119884
0.148210 0.830861 0.041769
0.257199 0.830620 0.041804
0.347302 0.830272 0.041846
0.431482 0.829807 0.041930
0.512806 0.829217 0.042010
0.592432 0.828492 0.042113
0.670891 0.827624 0.042270
0.748854 0.826888 0.042950
0.830370 0.829265 0.045302
0.900151 0.819672 0.040378
0.960274 0.803791 -0.047219
0.999553 0.777948 0.083272
1.143120 0.788702 0.068309
-0.024903 0.899408 0.158107
0.014003 0.898985 0.167909
-0.164898 0.901227 -0.119218
0.146463 0.900329 0.039654
0.254308 0.900063 0.039687
0.343427 0.899677 0.039729
0.426677 0.899160 0.039823
0.507091 0.898502 0.039911
0.585818 0.897690 0.040039
0.663376 0.896714 0.040194
0.740019 0.895560 0.040369
0.817226 0.895175 0.041173
0.902633 0.901523 0.043773
0.956429 0.877138 -0.045056
0.995256 0.847548 0.082092
1.137570 0.858807 0.067468
-0.025605 0.953687 0.154527
-0.029664 0.953424 0.163129
-0.166287 0.955732 -0.123886
0.135658 0.955019 -0.045588
0.245024 0.954697 -0.045493
0.333196 0.954232 -0.045380
0.415045 0.953608 -0.045217
0.493879 0.952809 -0.045007
0.570921 0.951821 -0.044749
0.646716 0.950624 -0.044439
0.721526 0.949198 -0.044038
0.795464 0.947514 -0.043601
0.871257 0.947502 -0.042571
0.956995 0.955629 -0.059627
0.988818 0.914958 0.077796
1.127543 0.923587 0.066749
-0.027207 0.991193 0.149652
-0.040817 0.990964 0.157472
-0.143592 0.990665 -0.087845
0.147989 0.990235 0.082220
0.243912 0.989958 0.082175
0.326045 0.989554 0.082123
0.403513 0.989006 0.082045
0.478664 0.988297 0.081950
0.552402 0.987406 0.081823
0.625135 0.986309 0.081682
0.697049 0.984975 0.081498
0.768215 0.983362 0.081270
0.838631 0.981422 0.081068
0.910350 0.980463 0.078296
0.985259 0.983195 0.070736
1.118119 0.986272 0.066175
-0.133465 1.417682 -0.139616
-0.149941 1.417677 -0.146958
-0.207615 1.418201 -0.228024
-0.106802 1.417752 -0.217005
0.192727 1.417286 -0.218632
0.293462 1.416716 -0.219583
0.375580 1.416056 -0.219559
0.449704 1.415272 -0.218225
0.520405 1.414285 -0.215488
0.590204 1.413008 -0.211644
0.660376 1.411359 -0.207260
0.731936 1.409253 -0.202792
0.806382 1.406598 -0.198364
0.883199 1.402689 -0.194046
0.959731 1.400037 -0.190934
1.095463 1.400804 -0.189895
0.176534 -0.978762 0.291273
0.181070 -0.978417 0.293587
0.217561 -0.977869 0.304168
0.265951 -0.977202 0.313205
0.322796 -0.976846 0.317093
0.389063 -0.976304 0.320523
0.465243 -0.976461 0.321359
0.550499 -0.976899 0.320355
0.636869 -0.977379 0.316689
0.720871 -0.977661 0.311242
0.802059 -0.977551 0.305195
0.879198 -0.976887 0.299242
0.950806 -0.975553 0.293711
1.006123 -0.973833 0.287140
1.043570 -0.972476 0.280493
1.184958 -0.972047 0.282155
0.140548 0.127761 0.238080
0.071126 0.073375 0.272824
0.167670 0.112984 0.261083
0.236141 0.130864 0.257077
0.293155 0.136933 0.252796
0.359980 0.143489 0.256132
0.434722 0.140180 0.257692
0.517031 0.131417 0.258009
0.599748 0.118189 0.255774
0.680359 0.101664 0.251876
0.759097 0.082491 0.247456
0.835361 0.061280 0.243104
0.908911 0.038072 0.239168
0.971923 -0.039232 0.232996
1.012403 -0.035657 0.226617
1.159926 -0.044385 0.228583
0.152479 0.172019 0.247890
0.124643 0.171126 0.255015
-0.027710 0.041376 0.270838
0.253935 0.095099 0.274835
0.319899 0.112715 0.256302
0.388394 0.116991 0.252588
0.458888 0.116413 0.249129
0.535732 0.110854 0.245901
0.614071 0.100145 0.241282
0.691587 0.085046 0.235691
0.768167 0.065734 0.229966
0.842920 0.040990 0.224639
0.915884 -0.030838 0.219712
0.984165 -0.077033 0.208945
1.007189 0.055487 0.210622
1.160294 -0.032270 0.208241
0.163232 0.232798 0.256207
0.151989 0.236983 0.258087
0.106765 0.248680 0.273453
0.230368 0.221789 0.265853
0.316015 0.187552 0.246038
0.397877 0.136119 0.203884
0.485988 0.049223 0.161585
0.572678 -0.116654 0.117545
0.654528 -0.152534 0.038596
0.732071 -0.173615 -0.099105
0.807047 -0.187156 -0.127988
0.879623 -0.195514 -0.144075
0.950674 -0.200317 -0.153876
1.013907 -0.205794 -0.165332
1.001618 -0.149215 -0.074614
1.162283 -0.160561 -0.103345
0.133835 0.293040 0.248231
0.125482 0.292425 0.248824
0.063850 0.299410 0.241536
-0.164964 0.309110 0.077056
0.315894 0.308102 0.141623
0.376152 0.277896 0.212738
0.456649 0.264678 0.178782
0.542349 0.254690 0.158880
0.626348 0.243940 0.141031
0.707083 0.233363 0.123043
0.785312 0.223820 0.104834
0.860924 0.215751 0.087397
0.933631 0.208872 0.070684
1.008322 0.190635 -0.083819
0.999746 0.213909 0.139378
1.161078 0.210035 0.115101
0.132391 0.356350 0.244314
0.128361 0.355379 0.247329
0.108642 0.358603 0.238245
-0.154139 0.374307 0.090372
0.249904 0.366595 0.157146
0.363207 0.365502 0.144752
0.440588 0.351799 0.159973
0.528682 0.349126 0.142529
0.615362 0.344086 0.124448
0.698500 0.338394 0.107926
0.778903 0.332997 0.091895
0.855821 0.327732 0.077248
0.928962 0.322625 0.065894
1.002369 0.311841 -0.082035
1.000074 0.309090 0.140330
1.160418 0.311895 0.115155
0.108777 0.426607 0.238238
0.105637 0.425716 0.242276
0.088135 0.427488 0.228723
-0.165244 0.442172 -0.066849
0.231274 0.434442 0.139796
0.335990 0.431733 0.134653
0.424282 0.426810 0.129744
0.515894 0.430619 0.117389
