assets/Assets/Summer Haze.cube
LUT_3D_SIZE 6
0.124975 0.124172 0.131139
0.220582 0.158991 0.165752
0.440341 0.138702 0.148473
0.685503 0.088252 0.106389
0.912828 -0.058214 0.043614
1.160070 -0.063540 0.027603
0.146497 0.230371 0.154988
0.234635 0.229097 0.151827
0.438133 0.226713 0.142720
0.684006 0.213332 0.096850
0.912538 0.198986 0.032806
1.159570 0.190783 0.017388
0.095553 0.427354 0.110861
0.208196 0.426464 0.108078
0.414533 0.414398 0.098301
0.678468 0.444729 0.025273
0.910677 0.442136 -0.020683
1.157284 0.426783 -0.005267
-0.074494 0.675345 -0.035016
0.197526 0.675386 -0.031321
0.444177 0.675217 -0.016602
0.670992 0.669808 -0.005023
0.905437 0.671764 -0.005518
1.150624 0.648511 -0.006084
-0.068257 0.899528 -0.006081
0.195791 0.899345 -0.006140
0.437812 0.898318 -0.006443
0.666983 0.896131 -0.006643
0.901959 0.900762 -0.006843
1.136971 0.860404 -0.007142
-0.144379 1.417548 -0.141685
0.145911 1.416777 -0.152921
0.395704 1.415409 -0.142703
0.598625 1.412430 -0.114038
0.809399 1.406092 -0.080671
1.094771 1.400288 -0.069617
0.176534 -0.978762 0.291273
0.265951 -0.977202 0.313205
0.465243 -0.976461 0.321359
0.720871 -0.977661 0.311242
0.950806 -0.975553 0.293711
1.184958 -0.972047 0.282155
0.163232 0.232798 0.256207
0.230368 0.221789 0.265853
0.485988 0.049223 0.161585
0.732071 -0.173615 -0.099105
0.950674 -0.200317 -0.153876
1.162283 -0.160561 -0.103345
0.108777 0.426607 0.238238
-0.165244 0.442172 -0.066849
0.424282 0.426810 0.129744
0.690907 0.428968 0.089990
0.924836 0.417262 0.066096
1.159348 0.399790 0.115175
-0.039309 0.675166 0.231688
-0.199448 0.683317 -0.152559
0.420386 0.679053 0.078066
0.674797 0.674342 0.081128
0.911072 0.665639 0.064463
1.152589 0.637460 0.114434
-0.024925 0.899358 0.229566
-0.198120 0.904161 -0.157011
0.406946 0.900957 0.062498
0.657381 0.897951 0.062299
0.903586 0.902660 0.066649
1.138725 0.856481 0.110292
-0.128184 1.417785 -0.070123
-0.244904 1.419438 -0.280185
0.340805 1.417282 -0.264869
0.576863 1.414139 -0.263581
0.801905 1.407610 -0.252981
1.096781 1.401785 -0.242866
0.176143 -0.978503 0.516104
0.300202 -0.978740 0.530722
0.508278 -0.980666 0.558373
0.739316 -0.981086 0.574135
0.957129 -0.978355 0.564336
1.183274 -0.974459 0.544967
0.142311 0.230872 0.454402
-0.102721 -0.088483 0.510982
0.475407 0.135725 0.485325
0.711909 0.069193 0.464378
0.936726 -0.068689 0.445192
1.161041 0.073316 0.420427
0.106863 0.422036 0.436515
0.080739 0.436027 0.445279
0.447357 0.429724 0.461745
0.731692 0.306150 0.344440
0.973357 0.140892 0.211690
1.169646 0.255875 0.284384
-0.035416 0.675175 0.457013
-0.054571 0.678196 0.441323
-0.108783 0.707226 0.189587
0.704864 0.704364 0.268875
0.950179 0.634297 0.193023
1.160876 0.603446 0.316009
-0.025047 0.899011 0.451223
-0.012863 0.900847 0.430104
-0.223123 0.918377 -0.160898
0.609833 0.907209 0.202469
0.913198 0.913122 0.206148
1.147176 0.843849 0.290068
-0.131509 1.417053 0.311187
-0.214941 1.418481 0.234155
-0.314582 1.427361 -0.391296
0.488044 1.422965 -0.371570
0.776831 1.415568 -0.363455
1.106756 1.409120 -0.344386
0.161799 -0.979008 0.772312
0.301449 -0.979487 0.777181
0.551753 -0.984281 0.801522
0.762574 -0.988074 0.813487
0.965204 -0.984222 0.807817
1.179243 -0.979707 0.778491
0.124915 0.228419 0.690808
-0.170155 -0.166012 0.787365
0.468231 0.104595 0.736896
0.704623 0.076164 0.708850
0.932706 -0.065584 0.689992
1.160530 0.073869 0.651357
0.075697 0.447156 0.685198
0.031113 0.443511 0.701711
0.185276 0.188447 0.746293
0.741686 0.280473 0.741922
0.971751 0.195126 0.661703
1.168318 0.269414 0.609308
-0.026637 0.671198 0.678839
-0.039264 0.676009 0.682087
0.226635 0.713613 0.713789
0.707779 0.689265 0.699960
0.957372 0.605838 0.615714
1.164797 0.620569 0.626459
-0.025293 0.898298 0.674576
-0.007139 0.899932 0.667712
0.141921 0.912149 0.624156
0.466448 0.919225 0.486314
0.940384 0.929824 0.477397
1.149664 0.849542 0.619985
-0.116240 1.416275 0.516019
-0.211104 1.417712 0.491044
-0.294782 1.425799 0.365801
0.386871 1.436044 0.178039
0.759734 1.426642 0.206529
1.119922 1.418468 0.269477
0.123973 -0.980288 0.995508
0.285675 -0.980717 0.996570
0.541800 -0.985037 1.006066
0.756670 -0.989498 1.012109
0.959992 -0.983976 1.008744
1.177729 -0.979382 0.964857
0.095413 0.215911 0.909075
-0.203348 -0.201950 1.001694
0.450980 0.040869 0.967332
0.689965 0.037904 0.935383
0.933026 -0.054059 0.931471
1.159789 0.076578 0.876149
0.048872 0.442946 0.906782
-0.041272 0.433957 0.931972
-0.082861 -0.093581 0.958825
0.657238 0.241037 0.954263
0.986517 0.178941 0.978501
1.167837 0.260961 0.862447
-0.021551 0.671228 0.903498
-0.035852 0.669445 0.909755
0.172642 0.648651 0.952586
0.558788 0.554843 0.943009
0.977005 0.528696 0.962415
1.171110 0.571938 0.853767
-0.025310 0.900690 0.901898
0.031958 0.903030 0.903545
0.162293 0.918722 0.916196
0.485020 0.936220 0.930435
0.912990 0.900887 0.897648
1.136531 0.886818 0.884726
-0.089769 1.414829 0.752882
-0.195584 1.416194 0.745091
-0.273212 1.423906 0.715443
0.398051 1.433493 0.690497
0.824971 1.416748 0.746600
1.107282 1.408056 0.745060
0.100741 -0.979734 1.178660
0.271386 -0.980151 1.178580
0.522099 -0.984022 1.177470
0.726927 -0.987769 1.174744
0.903515 -0.978422 1.172663
1.186152 -0.966047 1.177494
0.076712 0.205627 1.104352
-0.169379 -0.169479 1.107097
0.411993 0.102274 1.104165
0.647564 0.089756 1.102210
0.875077 0.077476 1.099923
1.159489 0.078502 1.098359
0.033206 0.430253 1.101115
0.086218 0.408483 1.102015
0.136174 0.130629 1.113189
0.601256 0.255009 1.107451
0.861373 0.255288 1.105253
1.167699 0.254735 1.102860
-0.028064 0.652416 1.096715
0.078591 0.643386 1.097572
0.255282 0.597854 1.103962
0.559612 0.557380 1.114114
0.846809 0.548552 1.108639
1.173052 0.546462 1.105474
-0.028004 0.866213 1.085499
0.078045 0.863128 1.086202
0.252266 0.849299 1.091322
0.542437 0.836391 1.098061
0.882575 0.881055 1.080378
1.143397 0.869670 1.082317
-0.028122 1.129858 1.074070
0.077266 1.131300 1.074491
0.248814 1.138537 1.078217
0.532340 1.146275 1.083131
0.860986 1.129662 1.072154
1.113041 1.110351 1.054449
