assets/Assets/Summer-Haze-v2.cube
LUT_3D_SIZE 6
0.045579 0.061617 0.082255
0.191801 0.142656 0.143317
0.444600 0.153336 0.158887
0.757137 0.145773 0.161012
1.020478 0.181202 0.196647
1.285435 0.251473 0.261419
0.145087 0.192093 0.146727
0.211107 0.194097 0.148926
0.442654 0.220816 0.159686
0.755911 0.236018 0.162802
1.020938 0.260352 0.203099
1.285377 0.303308 0.265635
0.121606 0.388088 0.148578
0.219844 0.387449 0.149828
0.416772 0.375973 0.150500
0.753708 0.454291 0.186319
1.023262 0.473842 0.237841
1.285581 0.479232 0.288518
0.185860 0.675842 0.214571
0.278226 0.676427 0.217453
0.515233 0.679156 0.231572
0.756764 0.678855 0.253809
1.026477 0.699649 0.293497
1.283764 0.683758 0.328125
0.293292 0.916727 0.309045
0.351248 0.916901 0.310503
0.549206 0.917828 0.318656
0.783321 0.919634 0.334443
1.036615 0.930295 0.361032
1.277327 0.889202 0.377777
0.476933 1.429120 0.489121
0.504921 1.428504 0.488099
0.622432 1.427950 0.492643
0.783823 1.426497 0.501413
0.981545 1.422738 0.512706
1.270892 1.422412 0.533308
-0.366423 -0.992323 -0.307674
-0.308017 -0.990400 -0.293113
0.364756 -0.984180 -0.271986
0.754223 -0.984983 -0.203855
1.025496 -0.979470 -0.181319
1.290697 -0.967121 -0.075782
0.157631 0.197622 0.199214
0.207794 0.188344 0.206313
0.502233 0.097072 0.163305
0.813997 -0.125253 0.125165
1.055937 -0.069836 0.161204
1.287460 0.215719 0.250372
0.134186 0.387379 0.217458
-0.173271 0.403829 0.102813
0.429913 0.389835 0.167228
0.768729 0.440440 0.194206
1.036738 0.450553 0.239101
1.287280 0.456090 0.294692
0.195035 0.675811 0.278568
-0.117148 0.684574 0.185976
0.491378 0.683168 0.236491
0.761805 0.684073 0.260819
1.031851 0.693394 0.294870
1.285514 0.673328 0.333909
0.297970 0.916679 0.351454
0.228315 0.920781 0.290633
0.520077 0.919973 0.319898
0.773218 0.921149 0.335936
1.038371 0.932131 0.363638
1.279029 0.885426 0.382881
0.480700 1.429389 0.495311
0.438224 1.430731 0.456929
0.587516 1.429483 0.466421
0.764989 1.427926 0.473276
0.974303 1.424074 0.486430
1.273036 1.423884 0.511151
-0.364803 -0.988931 0.285570
-0.251409 -0.988319 0.314023
0.449627 -0.987879 0.365210
0.778796 -0.988195 0.421880
1.029946 -0.981745 0.420234
1.288962 -0.969245 0.427612
0.151398 0.220286 0.371592
-0.140011 -0.097161 0.422926
0.492067 0.155989 0.404251
0.790238 0.146544 0.420151
1.044315 0.189530 0.421687
1.286673 0.263282 0.427356
0.133676 0.385803 0.359724
0.113969 0.400189 0.368507
0.458792 0.394166 0.386767
0.815552 0.283294 0.300429
1.078643 0.235240 0.266223
1.296552 0.319608 0.328029
0.198717 0.676390 0.433375
0.196889 0.679817 0.422058
0.188898 0.712550 0.268964
0.800927 0.719189 0.317990
1.067080 0.657471 0.311035
1.293123 0.628495 0.374942
0.299609 0.916718 0.476705
0.300386 0.918413 0.462772
0.205579 0.933875 0.294522
0.720051 0.928830 0.353286
1.048590 0.942128 0.384503
1.287319 0.868618 0.411826
0.480217 1.428747 0.542167
0.454739 1.429963 0.520276
0.393965 1.438262 0.406296
0.692997 1.435848 0.427972
0.950797 1.431507 0.445454
1.283943 1.431320 0.481395
-0.291987 -0.987028 0.620556
0.108217 -0.986878 0.626814
0.555155 -0.991655 0.653705
0.813163 -0.994736 0.669395
1.039125 -0.986624 0.662467
1.284650 -0.974036 0.649751
0.139780 0.234014 0.604937
-0.196486 -0.158902 0.693779
0.521261 0.140293 0.650059
0.782435 0.154535 0.627194
1.041187 0.196491 0.622859
1.286546 0.267234 0.602898
0.129401 0.447169 0.603327
0.110858 0.444863 0.619055
0.181909 0.179424 0.657529
0.828682 0.268996 0.660995
1.077843 0.257558 0.596295
1.295631 0.329666 0.564330
0.204044 0.673926 0.611932
0.205238 0.679283 0.615461
0.293762 0.722197 0.649295
0.804725 0.704025 0.644920
1.070746 0.621013 0.572428
1.298528 0.651392 0.599376
0.302887 0.916788 0.643024
0.303747 0.918312 0.637752
0.331857 0.929724 0.605065
0.545002 0.937609 0.486304
1.075371 0.956002 0.508470
1.290759 0.876311 0.619097
0.483877 1.428207 0.632918
0.457294 1.429437 0.619631
0.412169 1.437057 0.563778
0.619208 1.448350 0.516761
0.932777 1.442346 0.530413
1.296237 1.441057 0.562337
-0.331404 -0.988342 0.824961
-0.177711 -0.988181 0.826679
0.525328 -0.992431 0.836740
0.793496 -0.995843 0.845072
1.034149 -0.985386 0.849018
1.283618 -0.972736 0.819777
0.116695 0.227297 0.800892
-0.229426 -0.192873 0.871226
0.499376 0.118974 0.843945
0.769169 0.153296 0.824566
1.042624 0.209702 0.828958
1.286435 0.273706 0.787181
0.129085 0.449589 0.802016
0.115102 0.439411 0.821144
-0.091206 -0.037313 0.835103
0.724618 0.236474 0.837510
1.095660 0.265746 0.865960
1.295782 0.330297 0.774298
0.217528 0.683976 0.810362
0.215781 0.681760 0.815099
0.257290 0.654883 0.844713
0.611089 0.546221 0.836277
1.090665 0.540456 0.859494
1.304559 0.601389 0.776517
0.309359 0.920167 0.827980
0.311376 0.922446 0.829457
0.344298 0.937246 0.840292
0.571847 0.954887 0.853857
1.049544 0.933147 0.839580
1.279941 0.928163 0.838110
0.489368 1.427252 0.779677
0.465319 1.428439 0.774306
0.429961 1.435799 0.755384
0.605015 1.446256 0.733524
1.005219 1.434335 0.793011
1.287879 1.431316 0.802268
-0.335082 -0.987889 0.992549
-0.202442 -0.987758 0.993008
0.500790 -0.991326 0.993062
0.759167 -0.993773 0.992784
0.969871 -0.980216 0.995840
1.295047 -0.956933 1.011056
0.110211 0.220315 0.961418
-0.186839 -0.150672 0.962628
0.457811 0.148777 0.961743
0.718257 0.169366 0.962189
0.971770 0.214083 0.965279
1.287330 0.282364 0.974067
0.133968 0.434995 0.960965
0.148763 0.413527 0.961356
0.161084 0.158407 0.968813
0.658192 0.245567 0.966547
0.953943 0.280003 0.970185
1.296945 0.334367 0.978489
0.216596 0.659547 0.965109
0.224026 0.650449 0.965438
0.290064 0.595914 0.968773
0.614571 0.551773 0.978403
0.941610 0.555360 0.979530
1.307458 0.577817 0.987281
0.298292 0.876478 0.968503
0.304063 0.873399 0.968903
0.354702 0.856688 0.972300
0.622250 0.843377 0.979456
1.018692 0.914822 0.977121
1.287804 0.913606 0.988521
0.396334 1.145302 0.981504
0.401094 1.146767 0.982008
0.440357 1.154262 0.985556
0.659032 1.164028 0.992214
1.016175 1.153356 0.991979
1.268155 1.140392 0.982071
